; generated by Slic3r 0.9.9 on 2015-02-15 at 11:29:37

; layer_height = 0.3
; perimeters = 3
; top_solid_layers = 3
; bottom_solid_layers = 3
; fill_density = 0.30
; perimeter_speed = 20
; infill_speed = 10
; travel_speed = 130
; nozzle_diameter = 0.4
; filament_diameter = 1.75
; extrusion_multiplier = 1
; perimeters extrusion width = 0.42mm
; infill extrusion width = 0.42mm
; solid infill extrusion width = 0.42mm
; top infill extrusion width = 0.42mm
; first layer extrusion width = 0.60mm

G21 ; set units to millimeters
M107
M190 S55 ; wait for bed temperature to be reached
M104 S190 ; set temperature
G28 ; home all axes
G1 Z5 F5000 ; lift nozzle
M109 S190 ; wait for temperature to be reached
G90 ; use absolute coordinates
G92 E0
M82 ; use absolute distances for extrusion
G1 F1800.000 E-1.00000
G92 E0
G1 Z0.300 F7800.000
G1 X50.950 Y91.191
G1 F1800.000 E1.00000
G1 X51.670 Y90.871 F840.000 E1.05475
G1 X52.430 Y90.631 E1.11012
G1 X53.210 Y90.491 E1.16518
G1 X53.470 Y90.461 E1.18337
G1 X54.000 Y90.441 E1.22022
G1 X174.000 Y90.441 E9.55807
G1 X174.530 Y90.461 E9.59492
G1 X174.790 Y90.491 E9.61310
G1 X175.570 Y90.631 E9.66816
G1 X176.330 Y90.871 E9.72354
G1 X177.050 Y91.191 E9.77829
G1 X177.720 Y91.601 E9.83286
G1 X178.350 Y92.091 E9.88832
G1 X178.910 Y92.651 E9.94335
G1 X179.400 Y93.281 E9.99880
G1 X179.810 Y93.951 E10.05338
G1 X180.030 Y94.431 E10.09007
G1 X180.220 Y94.921 E10.12658
G1 X180.370 Y95.431 E10.16352
G1 X180.470 Y95.951 E10.20031
G1 X180.540 Y96.471 E10.23677
G1 X180.560 Y97.001 E10.27362
G1 X180.560 Y156.991 E14.44185
G1 X180.540 Y157.521 E14.47870
G1 X180.510 Y157.781 E14.49689
G1 X180.370 Y158.561 E14.55195
G1 X180.130 Y159.321 E14.60732
G1 X179.810 Y160.041 E14.66207
G1 X179.400 Y160.711 E14.71665
G1 X179.080 Y161.141 E14.75389
G1 X178.730 Y161.531 E14.79030
G1 X178.150 Y162.071 E14.84536
G1 X177.720 Y162.391 E14.88260
G1 X177.280 Y162.671 E14.91884
G1 X177.050 Y162.801 E14.93720
G1 X176.330 Y163.121 E14.99194
G1 X175.570 Y163.361 E15.04732
G1 X174.790 Y163.501 E15.10238
G1 X174.530 Y163.531 E15.12057
G1 X174.000 Y163.551 E15.15742
G1 X54.000 Y163.551 E23.49526
G1 X53.470 Y163.531 E23.53212
G1 X53.210 Y163.501 E23.55030
G1 X52.430 Y163.361 E23.60536
G1 X51.670 Y163.121 E23.66074
G1 X50.950 Y162.801 E23.71549
G1 X50.280 Y162.391 E23.77006
G1 X49.850 Y162.071 E23.80731
G1 X49.460 Y161.721 E23.84372
G1 X48.920 Y161.141 E23.89878
G1 X48.600 Y160.711 E23.93602
G1 X48.320 Y160.271 E23.97226
G1 X48.190 Y160.041 E23.99062
G1 X47.870 Y159.321 E24.04536
G1 X47.630 Y158.561 E24.10074
G1 X47.490 Y157.781 E24.15580
G1 X47.460 Y157.521 E24.17398
G1 X47.440 Y156.991 E24.21084
G1 X47.440 Y97.001 E28.37906
G1 X47.460 Y96.471 E28.41592
G1 X47.530 Y95.951 E28.45237
G1 X47.630 Y95.431 E28.48916
G1 X47.780 Y94.921 E28.52610
G1 X47.970 Y94.431 E28.56262
G1 X48.190 Y93.951 E28.59931
G1 X48.600 Y93.281 E28.65388
G1 X49.090 Y92.651 E28.70934
G1 X49.650 Y92.091 E28.76437
G1 X50.280 Y91.601 E28.81982
G1 X50.877 Y91.232 E28.86860
G1 F1800.000 E27.86860
G92 E0
G1 X55.393 Y98.394 F7800.000
G1 F1800.000 E1.00000
G1 X172.607 Y98.394 F840.000 E9.14431
G1 X172.607 Y155.606 E13.11956
G1 X55.393 Y155.606 E21.26387
G1 X55.393 Y98.477 E25.23331
G1 X54.836 Y97.837 F7800.000
G1 X173.164 Y97.837 F840.000 E33.45503
G1 X173.164 Y156.163 E37.50769
G1 X54.836 Y156.163 E45.72942
G1 X54.836 Y97.920 E49.77627
G1 X54.279 Y97.280 F7800.000
G1 X173.721 Y97.280 F588.000 E58.07541
G1 X173.721 Y156.720 E62.20549
G1 X54.279 Y156.720 E70.50462
G1 X54.279 Y97.363 E74.62889
G1 X54.761 Y97.558 F7800.000
G1 X55.797 Y155.203
G1 X55.796 Y154.413 F420.000 E74.68382
G1 X56.586 Y155.203 E74.76151
G1 X57.375 Y155.203 E74.81642
G1 X55.796 Y153.624 E74.97177
G1 X55.796 Y152.835 E75.02668
G1 X58.164 Y155.203 E75.25969
G1 X58.953 Y155.203 E75.31461
G1 X55.796 Y152.046 E75.62528
G1 X55.796 Y151.257 E75.68020
G1 X59.742 Y155.203 E76.06853
G1 X60.531 Y155.203 E76.12345
G1 X55.796 Y150.468 E76.58945
G1 X55.796 Y149.679 E76.64436
G1 X61.320 Y155.203 E77.18802
G1 X62.109 Y155.203 E77.24294
G1 X55.796 Y148.890 E77.86426
G1 X55.796 Y148.100 E77.91918
G1 X62.899 Y155.203 E78.61817
G1 X63.688 Y155.203 E78.67308
G1 X55.796 Y147.311 E79.44973
G1 X55.796 Y146.522 E79.50465
G1 X64.477 Y155.203 E80.35896
G1 X65.266 Y155.203 E80.41388
G1 X55.796 Y145.733 E81.34585
G1 X55.796 Y144.944 E81.40077
G1 X66.055 Y155.203 E82.41041
G1 X66.844 Y155.203 E82.46533
G1 X55.796 Y144.155 E83.55263
G1 X55.796 Y143.366 E83.60755
G1 X67.633 Y155.203 E84.77251
G1 X68.422 Y155.203 E84.82743
G1 X55.796 Y142.577 E86.07006
G1 X55.796 Y141.788 E86.12497
G1 X69.211 Y155.203 E87.44526
G1 X70.000 Y155.203 E87.50018
G1 X55.796 Y140.999 E88.89813
G1 X55.796 Y140.210 E88.95305
G1 X70.789 Y155.203 E90.42867
G1 X71.579 Y155.203 E90.48358
G1 X55.796 Y139.420 E92.03687
G1 X55.796 Y138.631 E92.09178
G1 X72.368 Y155.203 E93.72273
G1 X73.157 Y155.203 E93.77764
G1 X55.796 Y137.842 E95.48625
G1 X55.796 Y137.053 E95.54117
G1 X73.946 Y155.203 E97.32744
G1 X74.735 Y155.203 E97.38235
G1 X55.796 Y136.264 E99.24629
G1 X55.796 Y135.475 E99.30120
G1 X75.524 Y155.203 E101.24280
G1 X76.313 Y155.203 E101.29771
G1 X55.796 Y134.686 E103.31697
G1 X55.796 Y133.897 E103.37189
G1 X77.102 Y155.203 E105.46881
G1 X77.891 Y155.203 E105.52373
G1 X55.796 Y133.108 E107.69831
G1 X55.796 Y132.319 E107.75323
G1 X78.680 Y155.203 E110.00548
G1 X79.470 Y155.203 E110.06039
G1 X55.796 Y131.529 E112.39031
G1 X55.796 Y130.740 E112.44522
G1 X80.259 Y155.203 E114.85280
G1 X81.048 Y155.203 E114.90771
G1 X55.796 Y129.951 E117.39295
G1 X55.796 Y129.162 E117.44787
G1 X81.837 Y155.203 E120.01077
G1 X82.626 Y155.203 E120.06568
G1 X55.796 Y128.373 E122.70625
G1 X55.796 Y127.584 E122.76116
G1 X83.415 Y155.203 E125.47939
G1 X84.204 Y155.203 E125.53431
G1 X55.796 Y126.795 E128.33020
G1 X55.796 Y126.006 E128.38511
G1 X84.993 Y155.203 E131.25867
G1 X85.782 Y155.203 E131.31358
G1 X55.796 Y125.217 E134.26480
G1 X55.796 Y124.428 E134.31972
G1 X86.571 Y155.203 E137.34860
G1 X87.360 Y155.203 E137.40351
G1 X55.796 Y123.639 E140.51005
G1 X55.796 Y122.849 E140.56497
G1 X88.150 Y155.203 E143.74918
G1 X88.939 Y155.203 E143.80409
G1 X55.796 Y122.060 E147.06596
G1 X55.796 Y121.271 E147.12088
G1 X89.728 Y155.203 E150.46041
G1 X90.517 Y155.203 E150.51532
G1 X55.796 Y120.482 E153.93252
G1 X55.796 Y119.693 E153.98744
G1 X91.306 Y155.203 E157.48229
G1 X92.095 Y155.203 E157.53721
G1 X55.796 Y118.904 E161.10973
G1 X55.796 Y118.115 E161.16465
G1 X92.884 Y155.203 E164.81483
G1 X93.673 Y155.203 E164.86975
G1 X55.796 Y117.326 E168.59759
G1 X55.796 Y116.537 E168.65251
G1 X94.462 Y155.203 E172.45802
G1 X95.251 Y155.203 E172.51294
G1 X55.796 Y115.748 E176.39611
G1 X55.796 Y114.958 E176.45102
G1 X96.041 Y155.203 E180.41186
G1 X96.830 Y155.203 E180.46678
G1 X55.796 Y114.169 E184.50528
G1 X55.796 Y113.380 E184.56019
G1 X97.619 Y155.203 E188.67635
G1 X98.408 Y155.203 E188.73127
G1 X55.796 Y112.591 E192.92510
G1 X55.796 Y111.802 E192.98001
G1 X99.197 Y155.203 E197.25150
G1 X99.986 Y155.203 E197.30642
G1 X55.796 Y111.013 E201.65557
G1 X55.796 Y110.224 E201.71049
G1 X100.775 Y155.203 E206.13730
G1 X101.564 Y155.203 E206.19222
G1 X55.796 Y109.435 E210.69669
G1 X55.796 Y108.646 E210.75161
G1 X102.353 Y155.203 E215.33375
G1 X103.142 Y155.203 E215.38867
G1 X55.796 Y107.857 E220.04847
G1 X55.796 Y107.067 E220.10339
G1 X103.931 Y155.203 E224.84085
G1 X104.721 Y155.203 E224.89577
G1 X55.796 Y106.278 E229.71090
G1 X55.796 Y105.489 E229.76582
G1 X105.510 Y155.203 E234.65861
G1 X106.299 Y155.203 E234.71353
G1 X55.796 Y104.700 E239.68398
G1 X55.796 Y103.911 E239.73890
G1 X107.088 Y155.203 E244.78702
G1 X107.877 Y155.203 E244.84193
G1 X55.796 Y103.122 E249.96772
G1 X55.796 Y102.333 E250.02263
G1 X108.666 Y155.203 E255.22608
G1 X109.455 Y155.203 E255.28099
G1 X55.796 Y101.544 E260.56210
G1 X55.796 Y100.755 E260.61702
G1 X110.244 Y155.203 E265.97579
G1 X111.033 Y155.203 E266.03070
G1 X55.796 Y99.966 E271.46714
G1 X55.796 Y99.177 E271.52206
G1 X111.822 Y155.203 E277.03615
G1 X112.612 Y155.203 E277.09107
G1 X56.206 Y98.797 E282.64248
G1 X56.996 Y98.797 E282.69739
G1 X113.401 Y155.203 E288.24880
G1 X114.190 Y155.203 E288.30372
G1 X57.785 Y98.797 E293.85512
G1 X58.574 Y98.797 E293.91004
G1 X114.979 Y155.203 E299.46145
G1 X115.768 Y155.203 E299.51636
G1 X59.363 Y98.797 E305.06777
G1 X60.152 Y98.797 E305.12268
G1 X116.557 Y155.203 E310.67409
G1 X117.346 Y155.203 E310.72901
G1 X60.941 Y98.797 E316.28041
G1 X61.730 Y98.797 E316.33533
G1 X118.135 Y155.203 E321.88674
G1 X118.924 Y155.203 E321.94165
G1 X62.519 Y98.797 E327.49306
G1 X63.308 Y98.797 E327.54798
G1 X119.713 Y155.203 E333.09938
G1 X120.502 Y155.203 E333.15430
G1 X64.097 Y98.797 E338.70571
G1 X64.887 Y98.797 E338.76062
G1 X121.292 Y155.203 E344.31203
G1 X122.081 Y155.203 E344.36695
G1 X65.676 Y98.797 E349.91835
G1 X66.465 Y98.797 E349.97327
G1 X122.870 Y155.203 E355.52468
G1 X123.659 Y155.203 E355.57959
G1 X67.254 Y98.797 E361.13100
G1 X68.043 Y98.797 E361.18591
G1 X124.448 Y155.203 E366.73732
G1 X125.237 Y155.203 E366.79224
G1 X68.832 Y98.797 E372.34364
G1 X69.621 Y98.797 E372.39856
G1 X126.026 Y155.203 E377.94997
G1 X126.815 Y155.203 E378.00488
G1 X70.410 Y98.797 E383.55629
G1 X71.199 Y98.797 E383.61121
G1 X127.604 Y155.203 E389.16261
G1 X128.393 Y155.203 E389.21753
G1 X71.988 Y98.797 E394.76894
G1 X72.777 Y98.797 E394.82385
G1 X129.183 Y155.203 E400.37526
G1 X129.972 Y155.203 E400.43018
G1 X73.567 Y98.797 E405.98158
G1 X74.356 Y98.797 E406.03650
G1 X130.761 Y155.203 E411.58791
G1 X131.550 Y155.203 E411.64282
G1 X75.145 Y98.797 E417.19423
G1 X75.934 Y98.797 E417.24914
G1 X132.339 Y155.203 E422.80055
G1 X133.128 Y155.203 E422.85547
G1 X76.723 Y98.797 E428.40687
G1 X77.512 Y98.797 E428.46179
G1 X133.917 Y155.203 E434.01320
G1 X134.706 Y155.203 E434.06811
G1 X78.301 Y98.797 E439.61952
G1 X79.090 Y98.797 E439.67444
G1 X135.495 Y155.203 E445.22584
G1 X136.284 Y155.203 E445.28076
G1 X79.879 Y98.797 E450.83217
G1 X80.668 Y98.797 E450.88708
G1 X137.074 Y155.203 E456.43849
G1 X137.863 Y155.203 E456.49341
G1 X81.458 Y98.797 E462.04481
G1 X82.247 Y98.797 E462.09973
G1 X138.652 Y155.203 E467.65114
G1 X139.441 Y155.203 E467.70605
G1 X83.036 Y98.797 E473.25746
G1 X83.825 Y98.797 E473.31237
G1 X140.230 Y155.203 E478.86378
G1 X141.019 Y155.203 E478.91870
G1 X84.614 Y98.797 E484.47010
G1 X85.403 Y98.797 E484.52502
G1 X141.808 Y155.203 E490.07643
G1 X142.597 Y155.203 E490.13134
G1 X86.192 Y98.797 E495.68275
G1 X86.981 Y98.797 E495.73767
G1 X143.386 Y155.203 E501.28907
G1 X144.175 Y155.203 E501.34399
G1 X87.770 Y98.797 E506.89540
G1 X88.559 Y98.797 E506.95031
G1 X144.964 Y155.203 E512.50172
G1 X145.754 Y155.203 E512.55664
G1 X89.348 Y98.797 E518.10804
G1 X90.138 Y98.797 E518.16296
G1 X146.543 Y155.203 E523.71437
G1 X147.332 Y155.203 E523.76928
G1 X90.927 Y98.797 E529.32069
G1 X91.716 Y98.797 E529.37560
G1 X148.121 Y155.203 E534.92701
G1 X148.910 Y155.203 E534.98193
G1 X92.505 Y98.797 E540.53333
G1 X93.294 Y98.797 E540.58825
G1 X149.699 Y155.203 E546.13966
G1 X150.488 Y155.203 E546.19457
G1 X94.083 Y98.797 E551.74598
G1 X94.872 Y98.797 E551.80090
G1 X151.277 Y155.203 E557.35230
G1 X152.066 Y155.203 E557.40722
G1 X95.661 Y98.797 E562.95863
G1 X96.450 Y98.797 E563.01354
G1 X152.855 Y155.203 E568.56495
G1 X153.645 Y155.203 E568.61987
G1 X97.239 Y98.797 E574.17127
G1 X98.029 Y98.797 E574.22619
G1 X154.434 Y155.203 E579.77760
G1 X155.223 Y155.203 E579.83251
G1 X98.818 Y98.797 E585.38392
G1 X99.607 Y98.797 E585.43883
G1 X156.012 Y155.203 E590.99024
G1 X156.801 Y155.203 E591.04516
G1 X100.396 Y98.797 E596.59656
G1 X101.185 Y98.797 E596.65148
G1 X157.590 Y155.203 E602.20289
G1 X158.379 Y155.203 E602.25780
G1 X101.974 Y98.797 E607.80921
G1 X102.763 Y98.797 E607.86413
G1 X159.168 Y155.203 E613.41553
G1 X159.957 Y155.203 E613.47045
G1 X103.552 Y98.797 E619.02186
G1 X104.341 Y98.797 E619.07677
G1 X160.746 Y155.203 E624.62818
G1 X161.535 Y155.203 E624.68310
G1 X105.130 Y98.797 E630.23450
G1 X105.919 Y98.797 E630.28942
G1 X162.325 Y155.203 E635.84083
G1 X163.114 Y155.203 E635.89574
G1 X106.709 Y98.797 E641.44715
G1 X107.498 Y98.797 E641.50206
G1 X163.903 Y155.203 E647.05347
G1 X164.692 Y155.203 E647.10839
G1 X108.287 Y98.797 E652.65979
G1 X109.076 Y98.797 E652.71471
G1 X165.481 Y155.203 E658.26612
G1 X166.270 Y155.203 E658.32103
G1 X109.865 Y98.797 E663.87244
G1 X110.654 Y98.797 E663.92736
G1 X167.059 Y155.203 E669.47876
G1 X167.848 Y155.203 E669.53368
G1 X111.443 Y98.797 E675.08509
G1 X112.232 Y98.797 E675.14000
G1 X168.637 Y155.203 E680.69141
G1 X169.426 Y155.203 E680.74633
G1 X113.021 Y98.797 E686.29773
G1 X113.810 Y98.797 E686.35265
G1 X170.216 Y155.203 E691.90406
G1 X171.005 Y155.203 E691.95897
G1 X114.600 Y98.797 E697.51038
G1 X115.389 Y98.797 E697.56529
G1 X171.794 Y155.203 E703.11670
G1 X172.204 Y154.823 E703.15556
G1 X116.178 Y98.797 E708.66964
G1 X116.967 Y98.797 E708.72456
G1 X172.204 Y154.034 E714.16097
G1 X172.204 Y153.245 E714.21589
G1 X117.756 Y98.797 E719.57464
G1 X118.545 Y98.797 E719.62956
G1 X172.204 Y152.456 E724.91065
G1 X172.204 Y151.667 E724.96556
G1 X119.334 Y98.797 E730.16899
G1 X120.123 Y98.797 E730.22390
G1 X172.204 Y150.878 E735.34967
G1 X172.204 Y150.089 E735.40458
G1 X120.912 Y98.797 E740.45268
G1 X121.701 Y98.797 E740.50760
G1 X172.204 Y149.300 E745.47804
G1 X172.204 Y148.510 E745.53295
G1 X122.491 Y98.797 E750.42573
G1 X123.280 Y98.797 E750.48064
G1 X172.204 Y147.721 E755.29575
G1 X172.204 Y146.932 E755.35067
G1 X124.069 Y98.797 E760.08812
G1 X124.858 Y98.797 E760.14303
G1 X172.204 Y146.143 E764.80282
G1 X172.204 Y145.354 E764.85773
G1 X125.647 Y98.797 E769.43986
G1 X126.436 Y98.797 E769.49477
G1 X172.204 Y144.565 E773.99923
G1 X172.204 Y143.776 E774.05415
G1 X127.225 Y98.797 E778.48094
G1 X128.014 Y98.797 E778.53586
G1 X172.204 Y142.987 E782.88499
G1 X172.204 Y142.198 E782.93991
G1 X128.803 Y98.797 E787.21138
G1 X129.592 Y98.797 E787.26629
G1 X172.204 Y141.409 E791.46010
G1 X172.204 Y140.620 E791.51501
G1 X130.381 Y98.797 E795.63116
G1 X131.171 Y98.797 E795.68607
G1 X172.204 Y139.830 E799.72455
G1 X172.204 Y139.041 E799.77947
G1 X131.960 Y98.797 E803.74029
G1 X132.749 Y98.797 E803.79520
G1 X172.204 Y138.252 E807.67836
G1 X172.204 Y137.463 E807.73327
G1 X133.538 Y98.797 E811.53876
G1 X134.327 Y98.797 E811.59368
G1 X172.204 Y136.674 E815.32151
G1 X172.204 Y135.885 E815.37642
G1 X135.116 Y98.797 E819.02659
G1 X135.905 Y98.797 E819.08151
G1 X172.204 Y135.096 E822.65401
G1 X172.204 Y134.307 E822.70892
G1 X136.694 Y98.797 E826.20376
G1 X137.483 Y98.797 E826.25868
G1 X172.204 Y133.518 E829.67585
G1 X172.204 Y132.729 E829.73077
G1 X138.272 Y98.797 E833.07028
G1 X139.062 Y98.797 E833.12520
G1 X172.204 Y131.939 E836.38705
G1 X172.204 Y131.150 E836.44196
G1 X139.851 Y98.797 E839.62615
G1 X140.640 Y98.797 E839.68107
G1 X172.204 Y130.361 E842.78759
G1 X172.204 Y129.572 E842.84251
G1 X141.429 Y98.797 E845.87137
G1 X142.218 Y98.797 E845.92628
G1 X172.204 Y128.783 E848.87748
G1 X172.204 Y127.994 E848.93239
G1 X143.007 Y98.797 E851.80593
G1 X143.796 Y98.797 E851.86085
G1 X172.204 Y127.205 E854.65672
G1 X172.204 Y126.416 E854.71163
G1 X144.585 Y98.797 E857.42984
G1 X145.374 Y98.797 E857.48476
G1 X172.204 Y125.627 E860.12530
G1 X172.204 Y124.838 E860.18022
G1 X146.163 Y98.797 E862.74310
G1 X146.952 Y98.797 E862.79802
G1 X172.204 Y124.049 E865.28323
G1 X172.204 Y123.259 E865.33815
G1 X147.742 Y98.797 E867.74571
G1 X148.531 Y98.797 E867.80062
G1 X172.204 Y122.470 E870.13051
G1 X172.204 Y121.681 E870.18543
G1 X149.320 Y98.797 E872.43766
G1 X150.109 Y98.797 E872.49258
G1 X172.204 Y120.892 E874.66714
G1 X172.204 Y120.103 E874.72206
G1 X150.898 Y98.797 E876.81896
G1 X151.687 Y98.797 E876.87388
G1 X172.204 Y119.314 E878.89312
G1 X172.204 Y118.525 E878.94803
G1 X152.476 Y98.797 E880.88961
G1 X153.265 Y98.797 E880.94453
G1 X172.204 Y117.736 E882.80844
G1 X172.204 Y116.947 E882.86336
G1 X154.054 Y98.797 E884.64961
G1 X154.843 Y98.797 E884.70452
G1 X172.204 Y116.158 E886.41311
G1 X172.204 Y115.368 E886.46803
G1 X155.633 Y98.797 E888.09895
G1 X156.422 Y98.797 E888.15387
G1 X172.204 Y114.579 E889.70713
G1 X172.204 Y113.790 E889.76205
G1 X157.211 Y98.797 E891.23765
