; generated by Slic3r 0.9.9 on 2015-01-10 at 15:09:47

; layer_height = 0.3
; perimeters = 3
; top_solid_layers = 2
; bottom_solid_layers = 2
; fill_density = 0.30
; perimeter_speed = 20
; infill_speed = 10
; travel_speed = 130
; nozzle_diameter = 0.4
; filament_diameter = 1.75
; extrusion_multiplier = 1
; perimeters extrusion width = 0.42mm
; infill extrusion width = 0.42mm
; solid infill extrusion width = 0.42mm
; top infill extrusion width = 0.42mm
; first layer extrusion width = 0.60mm

G21 ; set units to millimeters
M107
M190 S55 ; wait for bed temperature to be reached
M104 S195 ; set temperature
G28 ; home all axes
G1 Z5 F5000 ; lift nozzle
M109 S195 ; wait for temperature to be reached
G90 ; use absolute coordinates
G92 E0
M82 ; use absolute distances for extrusion
G1 F1800.000 E-1.00000
G92 E0
G1 Z0.300 F7800.000
G1 X78.189 Y35.951
G1 F1800.000 E1.00000
G1 X78.599 Y35.281 F600.000 E1.05458
G1 X78.919 Y34.851 E1.09182
G1 X79.269 Y34.461 E1.12823
G1 X79.849 Y33.921 E1.18329
G1 X80.279 Y33.601 E1.22054
G1 X80.719 Y33.321 E1.25677
G1 X80.949 Y33.191 E1.27513
G1 X81.669 Y32.871 E1.32988
G1 X82.429 Y32.631 E1.38525
G1 X83.209 Y32.491 E1.44031
G1 X83.469 Y32.461 E1.45850
G1 X83.999 Y32.441 E1.49535
G1 X143.999 Y32.441 E5.66427
G1 X144.529 Y32.461 E5.70112
G1 X145.049 Y32.531 E5.73758
G1 X145.569 Y32.631 E5.77437
G1 X146.079 Y32.781 E5.81131
G1 X146.569 Y32.971 E5.84783
G1 X147.049 Y33.191 E5.88451
G1 X147.719 Y33.601 E5.93909
G1 X148.349 Y34.091 E5.99455
G1 X148.909 Y34.651 E6.04957
G1 X149.399 Y35.281 E6.10503
G1 X149.809 Y35.951 E6.15961
G1 X150.129 Y36.671 E6.21435
G1 X150.369 Y37.431 E6.26973
G1 X150.509 Y38.211 E6.32479
G1 X150.539 Y38.471 E6.34298
G1 X150.559 Y39.001 E6.37983
G1 X150.559 Y158.991 E14.71698
G1 X150.539 Y159.521 E14.75383
G1 X150.509 Y159.781 E14.77201
G1 X150.369 Y160.561 E14.82708
G1 X150.129 Y161.321 E14.88245
G1 X149.809 Y162.041 E14.93720
G1 X149.679 Y162.271 E14.95556
G1 X149.399 Y162.711 E14.99179
G1 X149.079 Y163.141 E15.02904
G1 X148.539 Y163.721 E15.08410
G1 X148.149 Y164.071 E15.12051
G1 X147.719 Y164.391 E15.15775
G1 X147.049 Y164.801 E15.21233
G1 X146.329 Y165.121 E15.26707
G1 X145.569 Y165.361 E15.32245
G1 X144.789 Y165.501 E15.37751
G1 X144.529 Y165.531 E15.39570
G1 X143.999 Y165.551 E15.43255
G1 X83.999 Y165.551 E19.60147
G1 X83.469 Y165.531 E19.63832
G1 X82.949 Y165.461 E19.67478
G1 X82.429 Y165.361 E19.71157
G1 X81.919 Y165.211 E19.74851
G1 X81.429 Y165.021 E19.78503
G1 X80.949 Y164.801 E19.82171
G1 X80.279 Y164.391 E19.87629
G1 X79.649 Y163.901 E19.93175
G1 X79.089 Y163.341 E19.98677
G1 X78.599 Y162.711 E20.04223
G1 X78.189 Y162.041 E20.09681
G1 X77.869 Y161.321 E20.15155
G1 X77.629 Y160.561 E20.20693
G1 X77.489 Y159.781 E20.26199
G1 X77.459 Y159.521 E20.28018
G1 X77.439 Y158.991 E20.31703
G1 X77.439 Y39.001 E28.65418
G1 X77.459 Y38.471 E28.69103
G1 X77.489 Y38.211 E28.70921
G1 X77.629 Y37.431 E28.76428
G1 X77.869 Y36.671 E28.81965
G1 X78.154 Y36.027 E28.86859
G1 F1800.000 E27.86859
G92 E0
G1 X134.174 Y48.243 F7800.000
G1 F1800.000 E1.00000
G1 X134.396 Y47.507 F600.000 E1.05346
G1 X134.759 Y46.831 E1.10679
G1 X135.244 Y46.244 E1.15967
G1 X135.831 Y45.759 E1.21255
G1 X136.477 Y45.412 E1.26353
G1 X136.006 Y44.835 E1.31526
G1 X135.781 Y44.418 E1.34817
G1 X135.647 Y43.968 E1.38086
G1 X135.599 Y43.502 E1.41339
G1 X135.647 Y43.033 E1.44612
G1 X135.782 Y42.578 E1.47909
G1 X136.009 Y42.164 E1.51189
G1 X136.300 Y41.807 E1.54395
G1 X136.666 Y41.505 E1.57690
G1 X137.082 Y41.285 E1.60958
G1 X137.526 Y41.148 E1.64187
G1 X137.998 Y41.099 E1.67488
G1 X138.474 Y41.148 E1.70809
G1 X138.922 Y41.286 E1.74066
G1 X139.331 Y41.505 E1.77290
G1 X139.697 Y41.803 E1.80573
G1 X139.995 Y42.169 E1.83853
G1 X140.214 Y42.578 E1.87078
G1 X140.352 Y43.026 E1.90336
G1 X140.401 Y43.502 E1.93655
G1 X140.352 Y43.974 E1.96957
G1 X140.215 Y44.418 E2.00186
G1 X139.997 Y44.830 E2.03424
G1 X139.523 Y45.412 E2.08641
G1 X140.169 Y45.759 E2.13738
G1 X140.756 Y46.244 E2.19026
G1 X141.242 Y46.833 E2.24332
G1 X141.601 Y47.507 E2.29639
G1 X141.825 Y48.238 E2.34951
G1 X141.900 Y48.999 E2.40263
G1 X141.825 Y49.762 E2.45592
G1 X141.601 Y50.493 E2.50907
G1 X141.242 Y51.167 E2.56213
G1 X140.756 Y51.756 E2.61519
G1 X140.075 Y52.318 E2.67655
G1 X140.214 Y52.578 E2.69702
G1 X140.352 Y53.026 E2.72961
G1 X140.401 Y53.502 E2.76280
G1 X140.352 Y53.974 E2.79581
G1 X140.215 Y54.419 E2.82812
G1 X139.995 Y54.834 E2.86081
G1 X139.693 Y55.200 E2.89374
G1 X139.336 Y55.491 E2.92581
G1 X138.922 Y55.718 E2.95859
G1 X138.271 Y55.911 E3.00573
G1 X138.271 Y56.085 E3.01778
G1 X138.922 Y56.286 E3.06513
G1 X139.331 Y56.505 E3.09738
G1 X139.697 Y56.803 E3.13018
G1 X139.995 Y57.169 E3.16300
G1 X140.214 Y57.578 E3.19525
G1 X140.352 Y58.026 E3.22782
G1 X140.401 Y58.501 E3.26097
G1 X140.352 Y58.978 E3.29427
G1 X140.214 Y59.420 E3.32649
G1 X139.995 Y59.834 E3.35903
G1 X139.693 Y60.200 E3.39196
G1 X139.336 Y60.491 E3.42403
G1 X138.922 Y60.718 E3.45680
G1 X138.271 Y60.911 E3.50395
G1 X138.271 Y61.085 E3.51600
G1 X138.922 Y61.286 E3.56335
G1 X139.331 Y61.505 E3.59560
G1 X139.697 Y61.803 E3.62840
G1 X139.995 Y62.169 E3.66122
G1 X140.214 Y62.578 E3.69347
G1 X140.352 Y63.026 E3.72604
G1 X140.401 Y63.501 E3.75919
G1 X140.352 Y63.978 E3.79249
G1 X140.214 Y64.420 E3.82470
G1 X139.995 Y64.834 E3.85724
G1 X139.693 Y65.200 E3.89018
G1 X139.331 Y65.495 E3.92268
G1 X138.922 Y65.714 E3.95492
G1 X138.271 Y65.915 E4.00227
G1 X138.271 Y66.089 E4.01432
G1 X138.922 Y66.282 E4.06146
G1 X139.336 Y66.509 E4.09425
G1 X139.697 Y66.803 E4.12664
G1 X139.995 Y67.169 E4.15945
G1 X140.214 Y67.578 E4.19169
G1 X140.352 Y68.026 E4.22421
G1 X140.401 Y68.498 E4.25718
G1 X140.353 Y68.977 E4.29066
G1 X140.213 Y69.424 E4.32317
G1 X139.995 Y69.831 E4.35527
G1 X139.520 Y70.413 E4.40748
G1 X140.167 Y70.758 E4.45839
G1 X140.756 Y71.244 E4.51146
G1 X141.242 Y71.833 E4.56451
G1 X141.601 Y72.506 E4.61753
G1 X141.825 Y73.235 E4.67053
G1 X141.900 Y73.999 E4.72383
G1 X141.825 Y74.764 E4.77729
G1 X141.601 Y75.494 E4.83033
G1 X141.243 Y76.166 E4.88321
G1 X140.756 Y76.759 E4.93653
G1 X140.075 Y77.318 E4.99777
G1 X140.214 Y77.582 E5.01850
G1 X140.352 Y78.024 E5.05071
G1 X140.401 Y78.502 E5.08406
G1 X140.352 Y78.974 E5.11708
G1 X140.214 Y79.422 E5.14962
G1 X139.995 Y79.831 E5.18186
G1 X139.700 Y80.193 E5.21429
G1 X139.331 Y80.499 E5.24764
G1 X138.916 Y80.716 E5.28020
G1 X138.269 Y80.916 E5.32722
G1 X138.269 Y81.084 E5.33894
G1 X138.922 Y81.286 E5.38640
G1 X139.331 Y81.505 E5.41865
G1 X139.697 Y81.803 E5.45147
G1 X139.998 Y82.172 E5.48452
G1 X140.214 Y82.582 E5.51672
G1 X140.352 Y83.024 E5.54893
G1 X140.401 Y83.502 E5.58227
G1 X140.352 Y83.974 E5.61529
G1 X140.214 Y84.422 E5.64783
G1 X139.995 Y84.831 E5.68008
G1 X139.700 Y85.193 E5.71251
G1 X139.331 Y85.499 E5.74585
G1 X138.916 Y85.716 E5.77841
G1 X138.269 Y85.916 E5.82543
G1 X138.269 Y86.084 E5.83715
G1 X138.922 Y86.286 E5.88461
G1 X139.331 Y86.505 E5.91686
G1 X139.697 Y86.803 E5.94968
G1 X139.998 Y87.172 E5.98273
G1 X140.214 Y87.582 E6.01493
G1 X140.352 Y88.024 E6.04714
G1 X140.401 Y88.502 E6.08049
G1 X140.352 Y88.974 E6.11350
G1 X140.214 Y89.422 E6.14604
G1 X139.995 Y89.831 E6.17828
G1 X139.700 Y90.193 E6.21072
G1 X139.336 Y90.495 E6.24363
G1 X138.916 Y90.720 E6.27672
G1 X138.271 Y90.911 E6.32343
G1 X138.271 Y91.085 E6.33548
G1 X138.922 Y91.286 E6.38282
G1 X139.331 Y91.505 E6.41507
G1 X139.697 Y91.803 E6.44789
G1 X139.998 Y92.172 E6.48094
G1 X140.214 Y92.582 E6.51314
G1 X140.352 Y93.024 E6.54535
G1 X140.401 Y93.502 E6.57870
G1 X140.352 Y93.974 E6.61171
G1 X140.214 Y94.422 E6.64426
G1 X139.995 Y94.831 E6.67649
G1 X139.520 Y95.413 E6.72871
G1 X140.165 Y95.757 E6.77948
G1 X140.756 Y96.241 E6.83258
G1 X141.243 Y96.834 E6.88590
G1 X141.601 Y97.507 E6.93884
G1 X141.825 Y98.238 E6.99198
G1 X141.900 Y99.001 E7.04526
G1 X141.825 Y99.762 E7.09839
G1 X141.601 Y100.493 E7.15152
G1 X141.242 Y101.167 E7.20458
G1 X140.756 Y101.756 E7.25764
G1 X140.075 Y102.318 E7.31900
G1 X140.215 Y102.580 E7.33962
G1 X140.352 Y103.030 E7.37228
G1 X140.401 Y103.501 E7.40521
G1 X140.352 Y103.974 E7.43825
G1 X140.214 Y104.422 E7.47080
G1 X139.995 Y104.831 E7.50303
G1 X139.700 Y105.193 E7.53547
G1 X139.336 Y105.495 E7.56839
G1 X138.916 Y105.720 E7.60149
G1 X138.270 Y105.912 E7.64830
G1 X138.270 Y106.090 E7.66067
G1 X138.916 Y106.283 E7.70751
G1 X139.331 Y106.504 E7.74020
G1 X139.697 Y106.803 E7.77303
G1 X139.995 Y107.169 E7.80585
G1 X140.214 Y107.578 E7.83809
G1 X140.353 Y108.026 E7.87068
G1 X140.401 Y108.501 E7.90386
G1 X140.352 Y108.974 E7.93689
G1 X140.215 Y109.418 E7.96918
G1 X139.995 Y109.834 E8.00188
G1 X139.693 Y110.200 E8.03480
G1 X139.336 Y110.491 E8.06686
G1 X138.922 Y110.718 E8.09966
G1 X138.270 Y110.912 E8.14692
G1 X138.270 Y111.090 E8.15930
G1 X138.916 Y111.283 E8.20613
G1 X139.331 Y111.504 E8.23882
G1 X139.697 Y111.803 E8.27165
G1 X139.995 Y112.169 E8.30447
G1 X140.214 Y112.578 E8.33671
G1 X140.353 Y113.026 E8.36930
G1 X140.401 Y113.501 E8.40248
G1 X140.352 Y113.974 E8.43551
G1 X140.215 Y114.418 E8.46780
G1 X139.995 Y114.834 E8.50050
G1 X139.693 Y115.200 E8.53342
G1 X139.336 Y115.491 E8.56548
G1 X138.922 Y115.718 E8.59828
G1 X138.270 Y115.912 E8.64554
G1 X138.270 Y116.090 E8.65792
G1 X138.916 Y116.283 E8.70475
G1 X139.331 Y116.504 E8.73744
G1 X139.697 Y116.803 E8.77027
G1 X139.995 Y117.169 E8.80310
G1 X140.214 Y117.578 E8.83533
G1 X140.353 Y118.026 E8.86792
G1 X140.401 Y118.501 E8.90110
G1 X140.352 Y118.974 E8.93413
G1 X140.215 Y119.418 E8.96642
G1 X139.995 Y119.834 E8.99912
G1 X139.518 Y120.412 E9.05117
G1 X140.167 Y120.758 E9.10228
G1 X140.756 Y121.244 E9.15535
G1 X141.242 Y121.833 E9.20841
G1 X141.601 Y122.507 E9.26147
G1 X141.825 Y123.238 E9.31461
G1 X141.900 Y124.001 E9.36789
G1 X141.825 Y124.762 E9.42102
G1 X141.601 Y125.493 E9.47415
G1 X141.242 Y126.167 E9.52721
G1 X140.756 Y126.756 E9.58028
G1 X140.075 Y127.318 E9.64163
G1 X140.214 Y127.578 E9.66210
G1 X140.353 Y128.026 E9.69469
G1 X140.401 Y128.501 E9.72787
G1 X140.352 Y128.974 E9.76090
G1 X140.215 Y129.418 E9.79319
G1 X139.997 Y129.830 E9.82558
G1 X139.693 Y130.203 E9.85901
G1 X139.331 Y130.494 E9.89128
G1 X138.922 Y130.718 E9.92368
G1 X138.271 Y130.911 E9.97084
G1 X138.271 Y131.085 E9.98289
G1 X138.922 Y131.286 E10.03023
G1 X139.331 Y131.504 E10.06246
G1 X139.697 Y131.803 E10.09529
G1 X139.996 Y132.169 E10.12813
G1 X140.214 Y132.578 E10.16034
G1 X140.353 Y133.026 E10.19294
G1 X140.401 Y133.501 E10.22612
G1 X140.352 Y133.974 E10.25915
G1 X140.215 Y134.418 E10.29144
G1 X139.997 Y134.830 E10.32382
G1 X139.693 Y135.203 E10.35726
G1 X139.331 Y135.494 E10.38953
G1 X138.922 Y135.718 E10.42192
G1 X138.271 Y135.911 E10.46908
G1 X138.271 Y136.085 E10.48113
G1 X138.922 Y136.286 E10.52847
G1 X139.331 Y136.504 E10.56070
G1 X139.697 Y136.803 E10.59353
G1 X139.995 Y137.169 E10.62635
G1 X140.214 Y137.578 E10.65858
G1 X140.353 Y138.026 E10.69118
G1 X140.401 Y138.501 E10.72436
G1 X140.352 Y138.974 E10.75739
G1 X140.215 Y139.418 E10.78968
G1 X139.995 Y139.834 E10.82238
G1 X139.693 Y140.200 E10.85530
G1 X139.336 Y140.491 E10.88736
G1 X138.922 Y140.718 E10.92016
G1 X138.271 Y140.911 E10.96730
G1 X138.271 Y141.085 E10.97935
G1 X138.922 Y141.286 E11.02669
G1 X139.331 Y141.504 E11.05892
G1 X139.697 Y141.803 E11.09175
G1 X139.995 Y142.169 E11.12457
G1 X140.214 Y142.578 E11.15680
G1 X140.353 Y143.026 E11.18940
G1 X140.401 Y143.501 E11.22253
G1 X140.352 Y143.978 E11.25585
G1 X140.214 Y144.420 E11.28806
G1 X139.995 Y144.834 E11.32060
G1 X139.519 Y145.410 E11.37251
G1 X140.169 Y145.759 E11.42375
G1 X140.756 Y146.244 E11.47665
G1 X141.242 Y146.833 E11.52971
G1 X141.601 Y147.507 E11.58277
G1 X141.825 Y148.238 E11.63590
G1 X141.900 Y148.999 E11.68902
G1 X141.825 Y149.762 E11.74230
G1 X141.601 Y150.493 E11.79545
G1 X141.243 Y151.166 E11.84839
G1 X140.756 Y151.759 E11.90172
G1 X140.075 Y152.318 E11.96294
G1 X140.214 Y152.578 E11.98347
G1 X140.352 Y153.026 E12.01600
G1 X140.401 Y153.498 E12.04898
G1 X140.352 Y153.977 E12.08247
G1 X140.213 Y154.424 E12.11495
G1 X139.995 Y154.831 E12.14705
G1 X139.697 Y155.197 E12.17986
G1 X139.331 Y155.495 E12.21268
G1 X138.942 Y155.704 E12.24336
G1 X138.710 Y155.782 E12.26034
G1 X138.462 Y155.854 E12.27828
G1 X137.998 Y155.901 E12.31070
G1 X137.526 Y155.852 E12.34366
G1 X137.081 Y155.715 E12.37598
G1 X136.666 Y155.496 E12.40864
G1 X136.300 Y155.193 E12.44160
G1 X136.009 Y154.836 E12.47365
G1 X135.783 Y154.423 E12.50632
G1 X135.647 Y153.970 E12.53919
G1 X135.598 Y153.491 E12.57268
G1 X135.645 Y153.041 E12.60412
G1 X135.782 Y152.578 E12.63764
G1 X135.925 Y152.317 E12.65829
G1 X135.244 Y151.759 E12.71950
G1 X134.758 Y151.168 E12.77264
G1 X134.396 Y150.493 E12.82585
G1 X134.174 Y149.756 E12.87932
G1 X134.102 Y148.999 E12.93220
G1 X134.174 Y148.243 E12.98492
G1 X134.396 Y147.507 E13.03838
G1 X134.759 Y146.831 E13.09171
G1 X135.244 Y146.244 E13.14459
G1 X135.831 Y145.759 E13.19747
G1 X136.481 Y145.410 E13.24873
G1 X136.009 Y144.839 E13.30020
G1 X135.782 Y144.420 E13.33331
G1 X135.647 Y143.971 E13.36588
G1 X135.599 Y143.501 E13.39872
G1 X135.647 Y143.033 E13.43139
G1 X135.782 Y142.578 E13.46437
G1 X136.009 Y142.164 E13.49716
G1 X136.300 Y141.807 E13.52921
G1 X136.666 Y141.505 E13.56215
G1 X137.081 Y141.285 E13.59484
G1 X137.729 Y141.085 E13.64195
G1 X137.729 Y140.912 E13.65399
G1 X137.081 Y140.719 E13.70091
G1 X136.661 Y140.491 E13.73412
G1 X136.304 Y140.196 E13.76631
G1 X136.009 Y139.839 E13.79850
G1 X135.781 Y139.418 E13.83174
G1 X135.647 Y138.968 E13.86441
G1 X135.599 Y138.502 E13.89694
G1 X135.647 Y138.033 E13.92968
G1 X135.782 Y137.578 E13.96266
G1 X136.009 Y137.164 E13.99545
G1 X136.300 Y136.807 E14.02750
G1 X136.666 Y136.505 E14.06044
G1 X137.081 Y136.285 E14.09313
G1 X137.729 Y136.085 E14.14024
G1 X137.729 Y135.911 E14.15229
G1 X137.082 Y135.719 E14.19920
G1 X136.666 Y135.494 E14.23202
G1 X136.304 Y135.199 E14.26447
G1 X136.006 Y134.835 E14.29714
G1 X135.781 Y134.418 E14.33006
G1 X135.647 Y133.968 E14.36273
G1 X135.599 Y133.502 E14.39526
G1 X135.647 Y133.033 E14.42800
G1 X135.782 Y132.578 E14.46098
G1 X136.009 Y132.164 E14.49376
G1 X136.300 Y131.807 E14.52582
G1 X136.666 Y131.505 E14.55877
G1 X137.081 Y131.285 E14.59145
G1 X137.729 Y131.085 E14.63856
G1 X137.729 Y130.912 E14.65061
G1 X137.081 Y130.719 E14.69752
G1 X136.666 Y130.494 E14.73034
G1 X136.304 Y130.199 E14.76279
G1 X136.006 Y129.835 E14.79545
G1 X135.781 Y129.418 E14.82837
G1 X135.647 Y128.968 E14.86105
G1 X135.599 Y128.502 E14.89358
G1 X135.647 Y128.033 E14.92632
G1 X135.782 Y127.578 E14.95929
G1 X135.924 Y127.318 E14.97989
G1 X135.244 Y126.756 E15.04123
G1 X134.759 Y126.169 E15.09410
G1 X134.396 Y125.493 E15.14743
G1 X134.174 Y124.757 E15.20089
G1 X134.102 Y124.001 E15.25361
G1 X134.174 Y123.244 E15.30649
G1 X134.396 Y122.507 E15.35997
G1 X134.759 Y121.831 E15.41330
G1 X135.244 Y121.244 E15.46617
G1 X135.833 Y120.758 E15.51923
G1 X136.482 Y120.412 E15.57035
G1 X136.009 Y119.839 E15.62199
G1 X135.781 Y119.418 E15.65521
G1 X135.647 Y118.968 E15.68789
G1 X135.599 Y118.502 E15.72042
G1 X135.647 Y118.033 E15.75316
G1 X135.782 Y117.578 E15.78613
G1 X136.009 Y117.164 E15.81891
G1 X136.300 Y116.807 E15.85098
G1 X136.666 Y116.505 E15.88392
G1 X137.088 Y116.282 E15.91708
G1 X137.730 Y116.090 E15.96368
G1 X137.730 Y115.912 E15.97605
G1 X137.082 Y115.719 E16.02308
G1 X136.661 Y115.491 E16.05631
G1 X136.304 Y115.196 E16.08849
G1 X136.009 Y114.839 E16.12070
G1 X135.781 Y114.418 E16.15392
G1 X135.647 Y113.968 E16.18659
G1 X135.599 Y113.502 E16.21912
G1 X135.647 Y113.033 E16.25186
G1 X135.782 Y112.578 E16.28484
G1 X136.009 Y112.164 E16.31762
G1 X136.300 Y111.807 E16.34968
G1 X136.666 Y111.505 E16.38263
G1 X137.088 Y111.282 E16.41579
G1 X137.730 Y111.090 E16.46238
G1 X137.730 Y110.912 E16.47476
G1 X137.082 Y110.719 E16.52179
G1 X136.661 Y110.491 E16.55501
G1 X136.304 Y110.196 E16.58720
G1 X136.009 Y109.839 E16.61940
G1 X135.781 Y109.418 E16.65262
G1 X135.647 Y108.968 E16.68530
G1 X135.599 Y108.502 E16.71783
G1 X135.647 Y108.033 E16.75057
G1 X135.782 Y107.578 E16.78354
G1 X136.009 Y107.164 E16.81632
G1 X136.300 Y106.807 E16.84839
G1 X136.666 Y106.505 E16.88133
G1 X137.088 Y106.282 E16.91449
G1 X137.730 Y106.090 E16.96109
