; generated by Slic3r 0.9.9 on 2015-01-12 at 13:49:36

; layer_height = 0.3
; perimeters = 2
; top_solid_layers = 1
; bottom_solid_layers = 1
; fill_density = 0.5
; perimeter_speed = 20
; infill_speed = 10
; travel_speed = 130
; nozzle_diameter = 0.4
; filament_diameter = 1.75
; extrusion_multiplier = 1
; perimeters extrusion width = 0.42mm
; infill extrusion width = 0.42mm
; solid infill extrusion width = 0.42mm
; top infill extrusion width = 0.42mm
; first layer extrusion width = 0.60mm

G21 ; set units to millimeters
M107
M190 S65 ; wait for bed temperature to be reached
M104 S195 ; set temperature
G28 ; home all axes
G1 Z5 F5000 ; lift nozzle
M109 S195 ; wait for temperature to be reached
G90 ; use absolute coordinates
G92 E0
M82 ; use absolute distances for extrusion
G1 F1800.000 E-1.00000
G92 E0
G1 Z0.300 F7800.000
G1 X73.970 Y32.430
G1 F1800.000 E1.00000
G1 X74.190 Y31.950 F600.000 E1.03669
G1 X74.320 Y31.720 E1.05504
G1 X74.600 Y31.280 E1.09128
G1 X74.920 Y30.850 E1.12852
G1 X75.270 Y30.460 E1.16493
G1 X75.650 Y30.090 E1.20179
G1 X76.280 Y29.600 E1.25724
G1 X76.950 Y29.190 E1.31182
G1 X77.430 Y28.970 E1.34851
G1 X77.920 Y28.780 E1.38502
G1 X78.430 Y28.630 E1.42196
G1 X78.950 Y28.530 E1.45875
G1 X79.470 Y28.460 E1.49521
G1 X80.000 Y28.440 E1.53206
G1 X140.000 Y28.440 E5.70098
G1 X140.530 Y28.460 E5.73783
G1 X141.050 Y28.530 E5.77429
G1 X141.570 Y28.630 E5.81108
G1 X142.080 Y28.780 E5.84802
G1 X142.570 Y28.970 E5.88454
G1 X143.050 Y29.190 E5.92122
G1 X143.720 Y29.600 E5.97580
G1 X144.350 Y30.090 E6.03126
G1 X144.910 Y30.650 E6.08628
G1 X145.400 Y31.280 E6.14174
G1 X145.810 Y31.950 E6.19632
G1 X146.130 Y32.670 E6.25106
G1 X146.370 Y33.430 E6.30644
G1 X146.510 Y34.210 E6.36150
G1 X146.540 Y34.470 E6.37969
G1 X146.560 Y35.000 E6.41654
G1 X146.560 Y155.000 E14.75438
G1 X146.540 Y155.530 E14.79123
G1 X146.510 Y155.790 E14.80942
G1 X146.370 Y156.570 E14.86448
G1 X146.130 Y157.330 E14.91986
G1 X145.810 Y158.050 E14.97460
G1 X145.680 Y158.280 E14.99296
G1 X145.400 Y158.720 E15.02920
G1 X145.080 Y159.150 E15.06644
G1 X144.540 Y159.730 E15.12150
G1 X144.150 Y160.080 E15.15791
G1 X143.720 Y160.400 E15.19516
G1 X143.050 Y160.810 E15.24973
G1 X142.330 Y161.130 E15.30448
G1 X141.570 Y161.370 E15.35986
G1 X140.790 Y161.510 E15.41492
G1 X140.530 Y161.540 E15.43310
G1 X140.000 Y161.560 E15.46995
G1 X80.000 Y161.560 E19.63888
G1 X79.470 Y161.540 E19.67573
G1 X78.950 Y161.470 E19.71218
G1 X78.430 Y161.370 E19.74898
G1 X77.920 Y161.220 E19.78591
G1 X77.430 Y161.030 E19.82243
G1 X76.950 Y160.810 E19.85912
G1 X76.280 Y160.400 E19.91370
G1 X75.650 Y159.910 E19.96915
G1 X75.090 Y159.350 E20.02418
G1 X74.600 Y158.720 E20.07963
G1 X74.190 Y158.050 E20.13421
G1 X73.870 Y157.330 E20.18896
G1 X73.630 Y156.570 E20.24433
G1 X73.490 Y155.790 E20.29940
G1 X73.460 Y155.530 E20.31758
G1 X73.440 Y155.000 E20.35443
G1 X73.440 Y35.000 E28.69228
G1 X73.460 Y34.470 E28.72913
G1 X73.490 Y34.210 E28.74731
G1 X73.630 Y33.430 E28.80238
G1 X73.780 Y32.920 E28.83931
G1 X73.938 Y32.507 E28.87002
G1 F1800.000 E27.87002
G92 E0
G1 X93.847 Y77.608 F7800.000
G1 F1800.000 E1.00000
G1 X94.132 Y77.507 F600.000 E1.02101
G1 X94.750 Y77.361 E1.06515
G1 X95.427 Y77.286 E1.11243
G1 X95.782 Y77.276 E1.13717
G1 X96.138 Y77.286 E1.16191
G1 X96.815 Y77.361 E1.20920
G1 X97.433 Y77.507 E1.25334
G1 X97.718 Y77.608 E1.27434
G1 X97.987 Y77.730 E1.29488
G1 X98.241 Y77.880 E1.31537
G1 X98.480 Y78.069 E1.33651
G1 X98.696 Y78.315 E1.35933
G1 X98.865 Y78.640 E1.38476
G1 X98.932 Y79.034 E1.41247
G1 X98.865 Y79.427 E1.44019
G1 X98.696 Y79.752 E1.46561
G1 X98.480 Y79.998 E1.48842
G1 X98.241 Y80.187 E1.50958
G1 X97.987 Y80.337 E1.53006
G1 X97.718 Y80.459 E1.55060
G1 X97.132 Y80.642 E1.59327
G1 X96.483 Y80.753 E1.63899
G1 X95.783 Y80.791 E1.68774
G1 X95.082 Y80.753 E1.73650
G1 X94.433 Y80.642 E1.78222
G1 X94.132 Y80.560 E1.80392
G1 X93.847 Y80.459 E1.82492
G1 X93.578 Y80.337 E1.84546
G1 X93.324 Y80.187 E1.86595
G1 X93.085 Y79.998 E1.88709
G1 X92.869 Y79.752 E1.90990
G1 X92.700 Y79.427 E1.93534
G1 X92.633 Y79.034 E1.96305
G1 X92.700 Y78.640 E1.99076
G1 X92.869 Y78.315 E2.01619
G1 X93.085 Y78.069 E2.03900
G1 X93.324 Y77.880 E2.06016
G1 X93.578 Y77.730 E2.08063
G1 X93.771 Y77.642 E2.09537
G1 X94.029 Y78.137 F7800.000
G1 X94.562 Y77.968 F600.000 E2.13417
G1 X95.144 Y77.868 E2.17520
G1 X95.457 Y77.842 E2.19706
G1 X96.108 Y77.842 E2.24225
G1 X96.421 Y77.868 E2.26411
G1 X97.003 Y77.968 E2.30514
G1 X97.510 Y78.125 E2.34200
G1 X97.730 Y78.225 E2.35878
G1 X97.925 Y78.340 E2.37456
G1 X98.094 Y78.474 E2.38954
G1 X98.233 Y78.632 E2.40413
G1 X98.330 Y78.820 E2.41883
G1 X98.367 Y79.034 E2.43390
G1 X98.330 Y79.247 E2.44897
G1 X98.233 Y79.435 E2.46367
G1 X98.095 Y79.593 E2.47826
G1 X97.925 Y79.727 E2.49325
G1 X97.510 Y79.942 E2.52576
G1 X97.003 Y80.099 E2.56262
G1 X96.421 Y80.199 E2.60364
G1 X95.782 Y80.234 E2.64809
G1 X95.144 Y80.199 E2.69254
G1 X94.562 Y80.099 E2.73357
G1 X94.055 Y79.942 E2.77043
G1 X93.640 Y79.727 E2.80294
G1 X93.470 Y79.593 E2.81792
G1 X93.332 Y79.435 E2.83252
G1 X93.235 Y79.247 E2.84722
G1 X93.198 Y79.034 E2.86228
G1 X93.235 Y78.820 E2.87735
G1 X93.332 Y78.632 E2.89205
G1 X93.470 Y78.474 E2.90664
G1 X93.640 Y78.340 E2.92163
G1 X93.953 Y78.171 E2.94639
G1 X94.117 Y77.587 F7800.000
G1 F1800.000 E1.94639
G92 E0
G1 X98.401 Y93.367 F7800.000
G1 F1800.000 E1.00000
G1 X100.422 Y92.953 F600.000 E1.14333
G1 X102.430 Y92.680 E1.28416
G1 X104.565 Y92.513 E1.43297
G1 X106.814 Y92.456 E1.58926
G1 X108.451 Y92.498 E1.70305
G1 X110.147 Y92.625 E1.82122
G1 X111.866 Y92.839 E1.94160
G1 X113.573 Y93.143 E2.06207
G1 X115.233 Y93.541 E2.18063
G1 X116.810 Y94.035 E2.29550
G1 X118.272 Y94.635 E2.40526
G1 X119.585 Y95.348 E2.50908
G1 X120.713 Y96.193 E2.60705
G1 X121.612 Y97.194 E2.70049
G1 X122.212 Y98.366 E2.79202
G1 X122.419 Y99.644 E2.88195
G1 X122.391 Y100.227 E2.92254
G1 X122.313 Y100.742 E2.95870
G1 X122.185 Y101.234 E2.99400
G1 X122.012 Y101.701 E3.02864
G1 X121.797 Y102.143 E3.06280
G1 X121.545 Y102.561 E3.09666
G1 X121.261 Y102.954 E3.13039
G1 X120.948 Y103.326 E3.16414
G1 X120.612 Y103.679 E3.19802
G1 X120.253 Y104.015 E3.23215
G1 X119.210 Y104.865 E3.32568
G1 X119.255 Y104.993 E3.33510
G1 X122.025 Y104.993 E3.52760
G1 X122.025 Y108.212 E3.75124
G1 X107.354 Y108.212 E4.77062
G1 X106.607 Y108.499 E4.82624
G1 X105.947 Y108.799 E4.87664
G1 X105.698 Y108.934 E4.89629
G1 X105.141 Y109.287 E4.94213
G1 X105.626 Y109.532 E4.97992
G1 X105.932 Y109.645 E5.00256
G1 X106.312 Y109.751 E5.02996
G1 X106.759 Y109.843 E5.06170
G1 X107.268 Y109.917 E5.09744
G1 X108.451 Y110.007 E5.17985
G1 X122.025 Y110.019 E6.12303
G1 X122.025 Y113.237 E6.34667
G1 X120.124 Y113.237 E6.47874
G1 X120.070 Y113.500 E6.49742
G1 X120.924 Y113.871 E6.56210
G1 X121.368 Y114.125 E6.59765
G1 X121.764 Y114.433 E6.63251
G1 X122.099 Y114.815 E6.66777
G1 X122.338 Y115.285 E6.70445
G1 X122.421 Y115.791 E6.74005
G1 X122.395 Y116.131 E6.76379
G1 X122.327 Y116.428 E6.78495
G1 X122.218 Y116.711 E6.80604
G1 X122.074 Y116.978 E6.82712
G1 X121.899 Y117.229 E6.84834
G1 X121.588 Y117.591 E6.88149
G1 X122.000 Y117.981 E6.92097
G1 X122.185 Y118.232 E6.94261
G1 X122.318 Y118.515 E6.96430
G1 X122.395 Y118.813 E6.98569
G1 X122.418 Y119.107 E7.00623
G1 X122.403 Y119.345 E7.02277
G1 X122.353 Y119.581 E7.03951
G1 X122.266 Y119.810 E7.05659
G1 X122.145 Y120.022 E7.07352
G1 X122.001 Y120.210 E7.08995
G1 X121.841 Y120.378 E7.10611
G1 X121.476 Y120.682 E7.13914
G1 X120.890 Y121.100 E7.18913
G1 X120.938 Y121.251 E7.20018
G1 X122.025 Y121.251 E7.27572
G1 X122.025 Y124.470 E7.49937
G1 X110.992 Y124.470 E8.26598
G1 X110.198 Y124.487 E8.32116
G1 X109.450 Y124.534 E8.37327
G1 X108.746 Y124.610 E8.42246
G1 X108.095 Y124.712 E8.46825
G1 X107.505 Y124.837 E8.51014
G1 X106.986 Y124.981 E8.54756
G1 X106.548 Y125.139 E8.57988
G1 X105.872 Y125.457 E8.63183
G1 X106.340 Y125.759 E8.67054
G1 X106.744 Y125.982 E8.70261
G1 X107.711 Y126.415 E8.77622
G1 X107.568 Y128.068 E8.89147
G1 X122.025 Y128.068 E9.89596
G1 X122.025 Y131.286 E10.11961
G1 X96.196 Y131.286 E11.91426
G1 X96.156 Y131.688 E11.94229
G1 X97.132 Y131.885 E12.01146
G1 X97.718 Y132.068 E12.05414
G1 X97.987 Y132.190 E12.07467
G1 X98.241 Y132.340 E12.09516
G1 X98.480 Y132.529 E12.11630
G1 X98.696 Y132.776 E12.13912
G1 X98.865 Y133.101 E12.16455
G1 X98.932 Y133.494 E12.19226
G1 X98.865 Y133.887 E12.21997
G1 X98.696 Y134.212 E12.24540
G1 X98.480 Y134.459 E12.26823
G1 X98.241 Y134.647 E12.28936
G1 X97.987 Y134.797 E12.30986
G1 X97.718 Y134.919 E12.33038
G1 X97.132 Y135.102 E12.37306
G1 X96.483 Y135.213 E12.41877
G1 X95.782 Y135.251 E12.46753
G1 X95.082 Y135.213 E12.51628
G1 X94.433 Y135.102 E12.56202
G1 X93.847 Y134.919 E12.60468
G1 X93.578 Y134.797 E12.62522
G1 X93.324 Y134.647 E12.64571
G1 X93.085 Y134.459 E12.66684
G1 X92.868 Y134.212 E12.68967
G1 X92.700 Y133.887 E12.71510
G1 X92.633 Y133.494 E12.74281
G1 X92.700 Y133.101 E12.77052
G1 X92.868 Y132.776 E12.79595
G1 X93.085 Y132.529 E12.81877
G1 X93.324 Y132.340 E12.83991
G1 X93.578 Y132.190 E12.86039
G1 X93.847 Y132.068 E12.88093
G1 X94.433 Y131.885 E12.92361
G1 X95.409 Y131.688 E12.99277
G1 X95.369 Y131.286 E13.02081
G1 X90.734 Y131.286 E13.34283
G1 X90.734 Y128.068 E13.56647
G1 X101.849 Y128.068 E14.33873
G1 X101.895 Y127.929 E14.34887
G1 X101.326 Y127.500 E14.39837
G1 X101.098 Y127.295 E14.41968
G1 X100.894 Y127.073 E14.44063
G1 X100.719 Y126.826 E14.46168
G1 X100.580 Y126.550 E14.48312
G1 X100.490 Y126.248 E14.50504
G1 X100.456 Y125.902 E14.52917
G1 X100.524 Y125.486 E14.55848
G1 X100.717 Y125.101 E14.58842
G1 X101.248 Y124.470 E14.64571
G1 X100.853 Y124.470 E14.67315
G1 X100.853 Y121.251 E14.89680
G1 X117.180 Y121.251 E16.03123
G1 X116.922 Y120.332 E16.09760
G1 X107.716 Y120.332 E16.73725
G1 X106.626 Y120.305 E16.81297
G1 X105.621 Y120.227 E16.88303
G1 X104.707 Y120.099 E16.94714
G1 X103.882 Y119.923 E17.00580
G1 X103.141 Y119.698 E17.05956
G1 X102.484 Y119.425 E17.10905
G1 X101.907 Y119.099 E17.15506
G1 X101.413 Y118.718 E17.19844
G1 X101.008 Y118.276 E17.24006
G1 X100.705 Y117.777 E17.28063
G1 X100.519 Y117.232 E17.32064
G1 X100.460 Y116.679 E17.35925
G1 X100.486 Y116.273 E17.38754
G1 X100.564 Y115.894 E17.41445
G1 X100.695 Y115.529 E17.44138
G1 X100.876 Y115.185 E17.46839
G1 X101.102 Y114.866 E17.49555
G1 X101.369 Y114.574 E17.52305
G1 X101.672 Y114.307 E17.55111
G1 X102.008 Y114.064 E17.57995
G1 X102.377 Y113.842 E17.60987
G1 X102.778 Y113.639 E17.64109
G1 X103.211 Y113.452 E17.67384
G1 X103.798 Y113.235 E17.71734
G1 X104.505 Y113.235 E17.76645
G1 X104.548 Y112.849 E17.79344
G1 X103.769 Y112.674 E17.84892
G1 X102.984 Y112.432 E17.90600
G1 X102.295 Y112.144 E17.95788
G1 X101.699 Y111.804 E18.00557
G1 X101.197 Y111.399 E18.05036
G1 X100.802 Y110.917 E18.09370
G1 X100.543 Y110.355 E18.13667
G1 X100.456 Y109.759 E18.17853
G1 X100.498 Y109.356 E18.20663
G1 X100.610 Y108.992 E18.23313
G1 X100.782 Y108.657 E18.25929
G1 X101.101 Y108.212 E18.29734
G1 X90.734 Y108.212 E19.01768
G1 X90.734 Y104.993 E19.24133
G1 X93.568 Y104.993 E19.43824
G1 X92.612 Y104.054 E19.53135
G1 X92.227 Y103.651 E19.57005
G1 X91.565 Y102.871 E19.64120
G1 X91.286 Y102.488 E19.67410
G1 X91.042 Y102.108 E19.70551
G1 X90.832 Y101.728 E19.73566
G1 X90.658 Y101.346 E19.76481
G1 X90.521 Y100.961 E19.79318
G1 X90.422 Y100.574 E19.82097
G1 X90.362 Y100.185 E19.84834
G1 X90.340 Y99.755 E19.87821
G1 X90.504 Y98.636 E19.95679
G1 X90.990 Y97.566 E20.03848
G1 X91.744 Y96.608 E20.12320
G1 X92.726 Y95.759 E20.21336
G1 X93.912 Y95.011 E20.31077
G1 X95.286 Y94.357 E20.41654
G1 X96.837 Y93.795 E20.53118
G1 X98.320 Y93.389 E20.63801
G1 F1800.000 E19.63801
G92 E0
G1 X96.108 Y132.302 F7800.000
G1 F1800.000 E1.00000
G1 X96.721 Y132.371 F600.000 E1.04285
G1 X97.267 Y132.499 E1.08186
G1 X97.730 Y132.685 E1.11650
G1 X97.925 Y132.800 E1.13228
G1 X98.094 Y132.934 E1.14726
G1 X98.233 Y133.092 E1.16185
G1 X98.330 Y133.280 E1.17655
G1 X98.367 Y133.494 E1.19162
G1 X98.330 Y133.707 E1.20669
G1 X98.233 Y133.895 E1.22139
G1 X98.094 Y134.053 E1.23599
G1 X97.925 Y134.187 E1.25096
G1 X97.730 Y134.302 E1.26674
G1 X97.267 Y134.488 E1.30139
G1 X96.721 Y134.617 E1.34040
G1 X96.421 Y134.659 E1.36139
G1 X95.782 Y134.694 E1.40585
G1 X95.144 Y134.659 E1.45030
G1 X94.844 Y134.617 E1.47130
G1 X94.298 Y134.488 E1.51031
G1 X93.835 Y134.302 E1.54496
G1 X93.640 Y134.187 E1.56073
G1 X93.470 Y134.053 E1.57571
G1 X93.332 Y133.895 E1.59031
G1 X93.235 Y133.707 E1.60501
G1 X93.198 Y133.494 E1.62007
G1 X93.235 Y133.280 E1.63514
G1 X93.332 Y133.092 E1.64984
G1 X93.470 Y132.934 E1.66444
G1 X93.640 Y132.800 E1.67942
G1 X94.055 Y132.585 E1.71193
G1 X94.562 Y132.428 E1.74879
G1 X95.144 Y132.328 E1.78982
G1 X95.457 Y132.302 E1.81168
G1 X96.024 Y132.300 E1.85107
G1 X96.421 Y131.842 F7800.000
G1 F1800.000 E0.85107
G92 E0
G1 X101.490 Y126.899 F7800.000
G1 F1800.000 E1.00000
G1 X101.329 Y126.723 F420.000 E1.01659
G1 X101.198 Y126.538 E1.03231
G1 X101.100 Y126.344 E1.04743
G1 X101.039 Y126.140 E1.06222
G1 X101.017 Y125.921 E1.07751
G1 X101.060 Y125.660 E1.09587
G1 X101.186 Y125.409 E1.11537
G1 X101.378 Y125.181 E1.13611
G1 X101.631 Y124.968 E1.15905
G1 X101.945 Y124.766 E1.18502
G1 X102.323 Y124.568 E1.21466
G1 X102.768 Y124.372 E1.24843
G1 X103.598 Y124.060 E1.31004
G1 X103.571 Y123.913 E1.32039
G1 X101.411 Y123.913 E1.47051
G1 X101.411 Y121.808 E1.61675
G1 X121.468 Y121.808 E3.01039
G1 X121.468 Y123.913 E3.15663
G1 X110.986 Y123.913 E3.88493
G1 X110.175 Y123.930 E3.94134
G1 X109.402 Y123.979 E3.99513
G1 X108.673 Y124.058 E4.04610
G1 X107.994 Y124.164 E4.09385
G1 X107.373 Y124.296 E4.13797
G1 X106.817 Y124.450 E4.17803
G1 X106.335 Y124.623 E4.21362
G1 X105.935 Y124.812 E4.24432
G1 X105.627 Y125.008 E4.26973
G1 X105.417 Y125.201 E4.28953
G1 X105.306 Y125.376 E4.30393
G1 X105.272 Y125.539 E4.31552
G1 X105.297 Y125.594 E4.31970
G1 X105.435 Y125.768 E4.33509
G1 X105.691 Y125.991 E4.35870
G1 X106.261 Y126.357 E4.40579
G1 X106.742 Y126.600 E4.44322
G1 X107.122 Y126.765 E4.47198
G1 X107.083 Y127.215 E4.50336
G1 X103.531 Y128.083 E4.75740
G1 X103.077 Y127.884 E4.79186
G1 X102.428 Y127.560 E4.84225
G1 X101.900 Y127.235 E4.88534
G1 X101.552 Y126.954 E4.91638
G1 X101.259 Y126.961 F7800.000
G1 F1800.000 E3.91638
G92 E0
G1 X100.853 Y131.876 F7800.000
G1 F1800.000 E1.00000
G1 X122.025 Y131.876 F600.000 E2.47106
G1 X122.025 Y135.094 E2.69471
G1 X115.251 Y135.094 E3.16536
G1 X115.217 Y135.525 E3.19539
G1 X116.442 Y135.722 E3.28158
G1 X117.603 Y135.978 E3.36420
G1 X118.678 Y136.292 E3.44199
G1 X119.654 Y136.667 E3.51465
G1 X120.520 Y137.111 E3.58230
G1 X121.265 Y137.638 E3.64568
G1 X121.867 Y138.270 E3.70635
G1 X122.279 Y139.028 E3.76630
G1 X122.420 Y139.841 E3.82358
G1 X122.398 Y140.297 E3.85532
G1 X122.337 Y140.690 E3.88293
G1 X122.235 Y141.070 E3.91027
G1 X122.089 Y141.433 E3.93747
G1 X121.903 Y141.777 E3.96463
G1 X121.681 Y142.100 E3.99191
G1 X121.424 Y142.403 E4.01947
G1 X121.138 Y142.688 E4.04756
G1 X120.823 Y142.959 E4.07642
G1 X120.480 Y143.219 E4.10631
G1 X119.518 Y143.841 E4.18590
G1 X115.035 Y143.841 E4.49737
G1 X114.667 Y142.571 E4.58921
G1 X115.441 Y142.081 E4.65285
G1 X116.019 Y141.670 E4.70215
G1 X116.261 Y141.472 E4.72385
G1 X116.644 Y141.099 E4.76102
G1 X116.891 Y140.769 E4.78970
G1 X117.016 Y140.497 E4.81045
G1 X117.050 Y140.291 E4.82496
G1 X117.029 Y140.110 E4.83765
G1 X116.973 Y139.960 E4.84871
G1 X116.869 Y139.803 E4.86184
G1 X116.691 Y139.628 E4.87913
G1 X116.425 Y139.442 E4.90170
G1 X116.063 Y139.256 E4.93000
G1 X115.605 Y139.078 E4.96412
G1 X115.054 Y138.916 E5.00402
G1 X114.413 Y138.773 E5.04966
G1 X113.685 Y138.652 E5.10099
G1 X112.861 Y138.554 E5.15859
G1 X112.861 Y143.993 E5.53649
G1 X110.272 Y143.952 E5.71641
G1 X108.668 Y143.870 E5.82802
G1 X107.211 Y143.736 E5.92971
G1 X105.898 Y143.549 E6.02184
G1 X104.727 Y143.310 E6.10489
G1 X103.693 Y143.018 E6.17949
G1 X102.793 Y142.670 E6.24655
G1 X102.023 Y142.257 E6.30730
G1 X101.382 Y141.765 E6.36342
G1 X100.884 Y141.180 E6.41684
G1 X100.563 Y140.499 E6.46915
G1 X100.453 Y139.749 E6.52177
G1 X100.574 Y138.975 E6.57621
G1 X100.917 Y138.273 E6.63053
G1 X101.432 Y137.668 E6.68572
G1 X102.084 Y137.154 E6.74341
G1 X102.856 Y136.713 E6.80518
G1 X103.742 Y136.335 E6.87208
