; generated by Slic3r 0.9.9 on 2015-01-11 at 15:21:38

; layer_height = 0.3
; perimeters = 2
; top_solid_layers = 1
; bottom_solid_layers = 1
; fill_density = 0.30
; perimeter_speed = 20
; infill_speed = 10
; travel_speed = 130
; nozzle_diameter = 0.4
; filament_diameter = 1.75
; extrusion_multiplier = 1
; perimeters extrusion width = 0.42mm
; infill extrusion width = 0.42mm
; solid infill extrusion width = 0.42mm
; top infill extrusion width = 0.42mm
; first layer extrusion width = 0.60mm

G21 ; set units to millimeters
M107
M190 S65 ; wait for bed temperature to be reached
M104 S195 ; set temperature
G28 ; home all axes
G1 Z5 F5000 ; lift nozzle
M109 S195 ; wait for temperature to be reached
G90 ; use absolute coordinates
G92 E0
M82 ; use absolute distances for extrusion
G1 F1800.000 E-1.00000
G92 E0
G1 Z0.300 F7800.000
G1 X78.190 Y36.950
G1 F1800.000 E1.00000
G1 X78.600 Y36.280 F600.000 E1.05458
G1 X78.920 Y35.850 E1.09182
G1 X79.270 Y35.460 E1.12823
G1 X79.850 Y34.920 E1.18329
G1 X80.280 Y34.600 E1.22054
G1 X80.720 Y34.320 E1.25677
G1 X80.950 Y34.190 E1.27513
G1 X81.670 Y33.870 E1.32988
G1 X82.430 Y33.630 E1.38525
G1 X83.210 Y33.490 E1.44031
G1 X83.470 Y33.460 E1.45850
G1 X84.000 Y33.440 E1.49535
G1 X144.000 Y33.440 E5.66427
G1 X144.530 Y33.460 E5.70112
G1 X145.050 Y33.530 E5.73758
G1 X145.570 Y33.630 E5.77437
G1 X146.080 Y33.780 E5.81131
G1 X146.570 Y33.970 E5.84783
G1 X147.050 Y34.190 E5.88451
G1 X147.720 Y34.600 E5.93909
G1 X148.350 Y35.090 E5.99455
G1 X148.910 Y35.650 E6.04957
G1 X149.400 Y36.280 E6.10503
G1 X149.810 Y36.950 E6.15961
G1 X150.130 Y37.670 E6.21435
G1 X150.370 Y38.430 E6.26973
G1 X150.510 Y39.210 E6.32479
G1 X150.540 Y39.470 E6.34298
G1 X150.560 Y40.000 E6.37983
G1 X150.560 Y160.000 E14.71767
G1 X150.540 Y160.530 E14.75452
G1 X150.510 Y160.790 E14.77271
G1 X150.370 Y161.570 E14.82777
G1 X150.130 Y162.330 E14.88315
G1 X149.810 Y163.050 E14.93789
G1 X149.680 Y163.280 E14.95625
G1 X149.400 Y163.720 E14.99249
G1 X149.080 Y164.150 E15.02973
G1 X148.540 Y164.730 E15.08479
G1 X148.150 Y165.080 E15.12120
G1 X147.720 Y165.400 E15.15845
G1 X147.050 Y165.810 E15.21302
G1 X146.330 Y166.130 E15.26777
G1 X145.570 Y166.370 E15.32315
G1 X144.790 Y166.510 E15.37821
G1 X144.530 Y166.540 E15.39639
G1 X144.000 Y166.560 E15.43324
G1 X84.000 Y166.560 E19.60217
G1 X83.470 Y166.540 E19.63902
G1 X82.950 Y166.470 E19.67548
G1 X82.430 Y166.370 E19.71227
G1 X81.920 Y166.220 E19.74920
G1 X81.430 Y166.030 E19.78572
G1 X80.950 Y165.810 E19.82241
G1 X80.280 Y165.400 E19.87699
G1 X79.650 Y164.910 E19.93244
G1 X79.090 Y164.350 E19.98747
G1 X78.600 Y163.720 E20.04292
G1 X78.190 Y163.050 E20.09750
G1 X77.870 Y162.330 E20.15225
G1 X77.630 Y161.570 E20.20762
G1 X77.490 Y160.790 E20.26269
G1 X77.460 Y160.530 E20.28087
G1 X77.440 Y160.000 E20.31772
G1 X77.440 Y40.000 E28.65557
G1 X77.460 Y39.470 E28.69242
G1 X77.490 Y39.210 E28.71060
G1 X77.630 Y38.430 E28.76567
G1 X77.870 Y37.670 E28.82104
G1 X78.155 Y37.026 E28.86998
G1 F1800.000 E27.86998
G92 E0
G1 X94.734 Y49.708 F7800.000
G1 F1800.000 E1.00000
G1 X124.276 Y49.708 F600.000 E3.05264
G1 X126.363 Y49.688 E3.19763
G1 X127.249 Y49.656 E3.25923
G1 X128.027 Y49.604 E3.31342
G1 X128.693 Y49.527 E3.36001
G1 X129.241 Y49.425 E3.39876
G1 X129.665 Y49.302 E3.42941
G1 X129.958 Y49.168 E3.45182
G1 X130.131 Y49.041 E3.46669
G1 X130.221 Y48.928 E3.47673
G1 X130.275 Y48.792 E3.48689
G1 X130.304 Y48.532 E3.50509
G1 X130.304 Y47.240 E3.59488
G1 X135.753 Y47.671 E3.97468
G1 X135.959 Y48.485 E4.03300
G1 X136.013 Y48.899 E4.06203
G1 X136.015 Y49.034 E4.07137
G1 X135.902 Y49.795 E4.12484
G1 X135.547 Y50.519 E4.18087
G1 X135.010 Y51.120 E4.23688
G1 X134.338 Y51.603 E4.29441
G1 X133.555 Y51.992 E4.35514
G1 X132.671 Y52.307 E4.42034
G1 X131.690 Y52.558 E4.49072
G1 X130.617 Y52.756 E4.56652
G1 X129.458 Y52.903 E4.64770
G1 X128.220 Y53.005 E4.73401
G1 X126.910 Y53.064 E4.82509
G1 X125.543 Y53.083 E4.92010
G1 X117.855 Y53.083 E5.45424
G1 X117.830 Y53.552 E5.48686
G1 X119.207 Y53.704 E5.58312
G1 X120.442 Y53.903 E5.67003
G1 X121.603 Y54.158 E5.75265
G1 X122.678 Y54.472 E5.83044
G1 X123.654 Y54.848 E5.90310
G1 X124.520 Y55.292 E5.97075
G1 X125.265 Y55.818 E6.03414
G1 X125.867 Y56.451 E6.09480
G1 X126.279 Y57.209 E6.15476
G1 X126.420 Y58.021 E6.21203
G1 X126.398 Y58.477 E6.24378
G1 X126.337 Y58.870 E6.27138
G1 X126.235 Y59.250 E6.29872
G1 X126.089 Y59.613 E6.32592
G1 X125.903 Y59.957 E6.35309
G1 X125.681 Y60.281 E6.38037
G1 X125.425 Y60.584 E6.40793
G1 X125.138 Y60.869 E6.43601
G1 X124.823 Y61.139 E6.46486
G1 X124.480 Y61.399 E6.49476
G1 X123.495 Y62.070 E6.57757
G1 X123.495 Y62.021 E6.58101
G1 X119.035 Y62.021 E6.89090
G1 X118.667 Y60.751 E6.98275
G1 X119.441 Y60.261 E7.04638
G1 X120.019 Y59.850 E7.09568
G1 X120.261 Y59.652 E7.11738
G1 X120.644 Y59.279 E7.15456
G1 X120.892 Y58.949 E7.18323
G1 X121.016 Y58.677 E7.20398
G1 X121.050 Y58.471 E7.21850
G1 X121.029 Y58.290 E7.23118
G1 X120.973 Y58.141 E7.24225
G1 X120.869 Y57.983 E7.25537
G1 X120.691 Y57.809 E7.27266
G1 X120.425 Y57.623 E7.29524
G1 X120.063 Y57.436 E7.32353
G1 X119.605 Y57.258 E7.35765
G1 X119.055 Y57.096 E7.39755
G1 X118.413 Y56.953 E7.44320
G1 X117.685 Y56.832 E7.49452
G1 X116.861 Y56.735 E7.55213
G1 X116.861 Y62.173 E7.93002
G1 X114.272 Y62.133 E8.10994
G1 X112.668 Y62.051 E8.22155
G1 X111.211 Y61.916 E8.32325
G1 X109.898 Y61.729 E8.41538
G1 X108.727 Y61.490 E8.49842
G1 X107.693 Y61.199 E8.57303
G1 X106.793 Y60.850 E8.64008
G1 X106.023 Y60.437 E8.70083
G1 X105.382 Y59.946 E8.75696
G1 X104.884 Y59.360 E8.81037
G1 X104.563 Y58.679 E8.86268
G1 X104.453 Y57.930 E8.91530
G1 X104.574 Y57.156 E8.96974
G1 X104.917 Y56.453 E9.02407
G1 X105.432 Y55.849 E9.07925
G1 X106.084 Y55.334 E9.13695
G1 X106.856 Y54.893 E9.19871
G1 X107.742 Y54.516 E9.26562
G1 X108.738 Y54.196 E9.33828
G1 X109.839 Y53.931 E9.41698
G1 X111.041 Y53.722 E9.50178
G1 X112.541 Y53.547 E9.60666
G1 X112.514 Y53.083 E9.63893
G1 X94.734 Y53.083 E10.87430
G1 X94.734 Y49.792 E11.10301
G1 X95.291 Y50.265 F7800.000
G1 X124.277 Y50.265 F420.000 E13.11701
G1 X126.377 Y50.245 E13.26294
G1 X127.278 Y50.213 E13.32554
G1 X128.077 Y50.159 E13.38125
G1 X128.776 Y50.078 E13.43008
G1 X129.371 Y49.968 E13.47211
G1 X129.860 Y49.825 E13.50752
G1 X130.242 Y49.651 E13.53672
G1 X130.520 Y49.446 E13.56071
G1 X130.708 Y49.211 E13.58161
G1 X130.820 Y48.929 E13.60270
G1 X130.861 Y48.563 E13.62828
G1 X130.861 Y47.843 E13.67834
G1 X135.312 Y48.195 E13.98858
G1 X135.425 Y48.651 E14.02123
G1 X135.456 Y48.918 E14.03992
G1 X135.364 Y49.627 E14.08959
G1 X135.081 Y50.205 E14.13428
G1 X134.635 Y50.703 E14.18071
G1 X134.049 Y51.124 E14.23087
G1 X133.337 Y51.479 E14.28614
G1 X132.508 Y51.773 E14.34727
G1 X131.570 Y52.014 E14.41456
G1 X130.531 Y52.205 E14.48795
G1 X129.400 Y52.349 E14.56720
G1 X128.184 Y52.449 E14.65193
G1 X126.894 Y52.507 E14.74169
G1 X125.539 Y52.526 E14.83582
G1 X95.291 Y52.526 E16.93751
G1 X95.291 Y50.349 E17.08881
G1 X95.291 Y49.708 F7800.000
G1 F1800.000 E16.08881
G92 E0
G1 X105.387 Y56.761 F7800.000
G1 F1800.000 E1.00000
G1 X105.821 Y56.252 F420.000 E1.04646
G1 X106.397 Y55.797 E1.09745
G1 X107.104 Y55.393 E1.15408
G1 X107.937 Y55.038 E1.21696
G1 X108.888 Y54.732 E1.28638
G1 X109.952 Y54.477 E1.36238
G1 X111.121 Y54.274 E1.44487
G1 X112.391 Y54.125 E1.53366
G1 X113.753 Y54.035 E1.62851
G1 X115.200 Y54.004 E1.72913
G1 X116.548 Y54.032 E1.82277
G1 X117.864 Y54.116 E1.91437
G1 X119.132 Y54.256 E2.00303
G1 X120.337 Y54.450 E2.08787
G1 X121.465 Y54.698 E2.16808
G1 X122.499 Y55.001 E2.24296
G1 X123.426 Y55.357 E2.31195
G1 X124.231 Y55.769 E2.37479
G1 X124.899 Y56.242 E2.43165
G1 X125.413 Y56.781 E2.48342
G1 X125.746 Y57.394 E2.53188
G1 X125.860 Y58.056 E2.57851
G1 X125.843 Y58.422 E2.60398
G1 X125.792 Y58.755 E2.62739
G1 X125.705 Y59.073 E2.65031
G1 X125.584 Y59.377 E2.67303
G1 X125.428 Y59.666 E2.69588
G1 X125.237 Y59.942 E2.71916
G1 X125.015 Y60.206 E2.74315
G1 X124.760 Y60.459 E2.76815
G1 X124.473 Y60.706 E2.79440
G1 X123.805 Y61.185 E2.85156
G1 X123.358 Y61.464 E2.88811
G1 X119.454 Y61.464 E3.15941
G1 X119.319 Y60.998 E3.19311
G1 X120.068 Y60.507 E3.25537
G1 X120.626 Y60.074 E3.30442
G1 X121.061 Y59.649 E3.34672
G1 X121.370 Y59.236 E3.38252
G1 X121.476 Y59.036 E3.39827
G1 X121.551 Y58.840 E3.41284
G1 X121.595 Y58.647 E3.42658
G1 X121.609 Y58.461 E3.43957
G1 X121.574 Y58.159 E3.46063
G1 X121.473 Y57.886 E3.48090
G1 X121.300 Y57.627 E3.50254
G1 X121.049 Y57.379 E3.52707
G1 X120.714 Y57.145 E3.55550
G1 X120.292 Y56.927 E3.58843
G1 X119.785 Y56.730 E3.62622
G1 X119.194 Y56.556 E3.66905
G1 X118.519 Y56.406 E3.71707
G1 X117.763 Y56.281 E3.77035
G1 X116.926 Y56.181 E3.82895
G1 X116.304 Y56.131 E3.87225
G1 X116.304 Y61.607 E4.25273
G1 X114.291 Y61.576 E4.39264
G1 X112.708 Y61.495 E4.50278
G1 X111.276 Y61.362 E4.60272
G1 X109.993 Y61.180 E4.69275
G1 X108.858 Y60.949 E4.77320
G1 X107.870 Y60.670 E4.84454
G1 X107.027 Y60.343 E4.90740
G1 X106.326 Y59.967 E4.96264
G1 X105.768 Y59.540 E5.01150
G1 X105.356 Y59.056 E5.05564
G1 X105.102 Y58.516 E5.09705
G1 X105.017 Y57.932 E5.13807
G1 X105.112 Y57.324 E5.18082
G1 X105.350 Y56.836 E5.21860
G1 X105.157 Y56.253 F7800.000
G1 X100.815 Y82.361
G1 X101.433 Y82.507 F600.000 E5.26275
G1 X101.718 Y82.608 E5.28375
G1 X101.987 Y82.730 E5.30429
G1 X102.241 Y82.880 E5.32477
G1 X102.480 Y83.069 E5.34592
G1 X102.696 Y83.315 E5.36873
G1 X102.865 Y83.640 E5.39416
G1 X102.932 Y84.034 E5.42188
G1 X102.865 Y84.427 E5.44959
G1 X102.696 Y84.752 E5.47502
G1 X102.480 Y84.998 E5.49782
G1 X102.241 Y85.187 E5.51898
G1 X101.987 Y85.337 E5.53947
G1 X101.718 Y85.459 E5.56000
G1 X101.132 Y85.642 E5.60267
G1 X100.483 Y85.753 E5.64839
G1 X100.138 Y85.781 E5.67243
G1 X99.427 Y85.781 E5.72189
G1 X99.082 Y85.753 E5.74593
G1 X98.433 Y85.642 E5.79164
G1 X97.847 Y85.459 E5.83432
G1 X97.578 Y85.337 E5.85485
G1 X97.324 Y85.187 E5.87534
G1 X97.085 Y84.998 E5.89648
G1 X96.869 Y84.752 E5.91930
G1 X96.700 Y84.427 E5.94473
G1 X96.633 Y84.034 E5.97244
G1 X96.700 Y83.640 E6.00015
G1 X96.869 Y83.315 E6.02558
G1 X97.085 Y83.069 E6.04839
G1 X97.324 Y82.880 E6.06955
G1 X97.578 Y82.730 E6.09003
G1 X97.847 Y82.608 E6.11057
G1 X98.132 Y82.507 E6.13157
G1 X98.750 Y82.361 E6.17572
G1 X99.427 Y82.286 E6.22300
G1 X99.782 Y82.276 E6.24774
G1 X100.138 Y82.286 E6.27248
G1 X100.732 Y82.349 E6.31396
G1 X100.691 Y82.906 F7800.000
G1 X101.267 Y83.039 F600.000 E6.35504
G1 X101.730 Y83.225 E6.38968
G1 X101.925 Y83.340 E6.40545
G1 X102.094 Y83.474 E6.42044
G1 X102.233 Y83.632 E6.43503
G1 X102.330 Y83.820 E6.44973
G1 X102.367 Y84.034 E6.46480
G1 X102.330 Y84.247 E6.47987
G1 X102.233 Y84.435 E6.49457
G1 X102.095 Y84.593 E6.50916
G1 X101.925 Y84.727 E6.52415
G1 X101.510 Y84.942 E6.55666
G1 X101.267 Y85.028 E6.57455
G1 X100.721 Y85.157 E6.61356
G1 X100.108 Y85.225 E6.65641
G1 X99.782 Y85.234 E6.67901
G1 X99.144 Y85.199 E6.72346
G1 X98.844 Y85.157 E6.74447
G1 X98.298 Y85.028 E6.78348
G1 X97.835 Y84.842 E6.81812
G1 X97.640 Y84.727 E6.83390
G1 X97.470 Y84.593 E6.84888
G1 X97.332 Y84.435 E6.86347
G1 X97.235 Y84.247 E6.87817
G1 X97.198 Y84.034 E6.89324
G1 X97.235 Y83.820 E6.90831
G1 X97.332 Y83.632 E6.92301
G1 X97.470 Y83.474 E6.93760
G1 X97.640 Y83.340 E6.95259
G1 X98.055 Y83.125 E6.98510
G1 X98.562 Y82.968 E7.02196
G1 X99.144 Y82.868 E7.06298
G1 X99.782 Y82.833 E7.10743
G1 X100.108 Y82.842 E7.13004
G1 X100.608 Y82.895 E7.16501
G1 X101.055 Y82.484 F7800.000
G1 F1800.000 E6.16501
G92 E0
G1 X104.260 Y97.985 F7800.000
G1 F1800.000 E1.00000
G1 X106.430 Y97.680 F600.000 E1.15225
G1 X108.565 Y97.513 E1.30106
G1 X110.814 Y97.456 E1.45735
G1 X112.451 Y97.498 E1.57114
G1 X114.147 Y97.625 E1.68931
G1 X115.866 Y97.839 E1.80969
G1 X117.573 Y98.143 E1.93016
G1 X119.233 Y98.541 E2.04872
G1 X120.810 Y99.035 E2.16359
G1 X122.272 Y99.635 E2.27335
G1 X123.585 Y100.348 E2.37717
G1 X124.713 Y101.193 E2.47514
G1 X125.612 Y102.194 E2.56858
G1 X126.212 Y103.366 E2.66011
G1 X126.419 Y104.644 E2.75004
G1 X126.391 Y105.227 E2.79063
G1 X126.313 Y105.742 E2.82679
G1 X126.185 Y106.234 E2.86209
G1 X126.012 Y106.701 E2.89673
G1 X125.797 Y107.143 E2.93089
G1 X125.545 Y107.561 E2.96475
G1 X125.261 Y107.954 E2.99848
G1 X124.948 Y108.326 E3.03223
G1 X124.612 Y108.679 E3.06611
G1 X124.253 Y109.015 E3.10024
G1 X123.210 Y109.865 E3.19377
G1 X123.255 Y109.993 E3.20319
G1 X126.025 Y109.993 E3.39569
G1 X126.025 Y113.212 E3.61933
G1 X111.354 Y113.212 E4.63871
G1 X110.607 Y113.499 E4.69433
G1 X109.947 Y113.799 E4.74473
G1 X109.698 Y113.934 E4.76438
G1 X109.141 Y114.287 E4.81022
G1 X109.626 Y114.532 E4.84801
G1 X109.932 Y114.645 E4.87065
G1 X110.312 Y114.751 E4.89805
G1 X110.759 Y114.843 E4.92979
G1 X111.268 Y114.917 E4.96553
G1 X112.451 Y115.007 E5.04794
G1 X126.025 Y115.019 E5.99112
G1 X126.025 Y118.237 E6.21476
G1 X124.124 Y118.237 E6.34683
G1 X124.070 Y118.500 E6.36551
G1 X124.924 Y118.871 E6.43019
G1 X125.368 Y119.125 E6.46574
G1 X125.764 Y119.433 E6.50060
G1 X126.099 Y119.815 E6.53586
G1 X126.338 Y120.285 E6.57254
G1 X126.421 Y120.791 E6.60814
G1 X126.395 Y121.131 E6.63188
G1 X126.327 Y121.428 E6.65304
G1 X126.218 Y121.711 E6.67413
G1 X126.074 Y121.978 E6.69521
G1 X125.899 Y122.229 E6.71643
G1 X125.588 Y122.591 E6.74959
G1 X126.000 Y122.981 E6.78907
G1 X126.185 Y123.232 E6.81070
G1 X126.318 Y123.515 E6.83239
G1 X126.395 Y123.813 E6.85378
G1 X126.418 Y124.107 E6.87432
G1 X126.403 Y124.345 E6.89086
G1 X126.353 Y124.581 E6.90760
G1 X126.266 Y124.810 E6.92468
G1 X126.145 Y125.022 E6.94161
G1 X126.001 Y125.210 E6.95804
G1 X125.841 Y125.378 E6.97420
G1 X125.476 Y125.682 E7.00723
G1 X124.890 Y126.100 E7.05722
G1 X124.938 Y126.251 E7.06827
G1 X126.025 Y126.251 E7.14381
G1 X126.025 Y129.470 E7.36746
G1 X114.992 Y129.470 E8.13407
G1 X114.198 Y129.487 E8.18925
G1 X113.450 Y129.534 E8.24136
G1 X112.746 Y129.610 E8.29055
G1 X112.095 Y129.712 E8.33634
G1 X111.505 Y129.837 E8.37823
G1 X110.986 Y129.981 E8.41565
G1 X110.548 Y130.139 E8.44797
G1 X109.872 Y130.457 E8.49992
G1 X110.340 Y130.759 E8.53864
G1 X110.744 Y130.982 E8.57070
G1 X111.711 Y131.415 E8.64432
G1 X111.568 Y133.068 E8.75956
G1 X126.025 Y133.068 E9.76405
G1 X126.025 Y136.286 E9.98770
G1 X100.196 Y136.286 E11.78235
G1 X100.156 Y136.688 E11.81038
G1 X101.132 Y136.885 E11.87955
G1 X101.718 Y137.068 E11.92223
G1 X101.987 Y137.190 E11.94276
G1 X102.241 Y137.340 E11.96325
G1 X102.480 Y137.529 E11.98439
G1 X102.696 Y137.776 E12.00721
G1 X102.865 Y138.101 E12.03264
G1 X102.932 Y138.494 E12.06035
G1 X102.865 Y138.887 E12.08806
G1 X102.696 Y139.212 E12.11349
G1 X102.480 Y139.459 E12.13633
G1 X102.241 Y139.647 E12.15745
G1 X101.987 Y139.797 E12.17795
G1 X101.718 Y139.919 E12.19848
G1 X101.132 Y140.102 E12.24115
G1 X100.483 Y140.213 E12.28686
G1 X99.782 Y140.251 E12.33562
G1 X99.082 Y140.213 E12.38438
G1 X98.433 Y140.102 E12.43011
G1 X97.847 Y139.919 E12.47277
G1 X97.578 Y139.797 E12.49332
G1 X97.324 Y139.647 E12.51380
G1 X97.085 Y139.459 E12.53494
G1 X96.868 Y139.212 E12.55776
G1 X96.700 Y138.887 E12.58319
G1 X96.633 Y138.494 E12.61090
G1 X96.700 Y138.101 E12.63861
G1 X96.868 Y137.776 E12.66404
G1 X97.085 Y137.529 E12.68686
G1 X97.324 Y137.340 E12.70800
G1 X97.578 Y137.190 E12.72849
G1 X97.847 Y137.068 E12.74902
G1 X98.433 Y136.885 E12.79170
G1 X99.409 Y136.688 E12.86086
G1 X99.369 Y136.286 E12.88890
G1 X94.734 Y136.286 E13.21092
G1 X94.734 Y133.068 E13.43456
G1 X105.849 Y133.068 E14.20682
G1 X105.895 Y132.929 E14.21697
G1 X105.326 Y132.500 E14.26647
G1 X105.098 Y132.295 E14.28777
G1 X104.894 Y132.073 E14.30872
G1 X104.719 Y131.826 E14.32977
G1 X104.580 Y131.550 E14.35121
G1 X104.490 Y131.248 E14.37313
G1 X104.456 Y130.902 E14.39726
G1 X104.524 Y130.486 E14.42657
G1 X104.717 Y130.101 E14.45651
G1 X105.248 Y129.470 E14.51380
G1 X104.853 Y129.470 E14.54124
G1 X104.853 Y126.251 E14.76489
G1 X121.180 Y126.251 E15.89932
G1 X120.922 Y125.332 E15.96569
G1 X111.716 Y125.332 E16.60534
G1 X110.626 Y125.305 E16.68107
G1 X109.621 Y125.227 E16.75112
G1 X108.707 Y125.099 E16.81523
G1 X107.882 Y124.923 E16.87390
G1 X107.141 Y124.698 E16.92765
G1 X106.484 Y124.425 E16.97714
G1 X105.907 Y124.099 E17.02316
G1 X105.413 Y123.718 E17.06653
G1 X105.008 Y123.276 E17.10815
G1 X104.705 Y122.777 E17.14873
G1 X104.519 Y122.232 E17.18873
