; generated by Slic3r 0.9.9 on 2015-01-10 at 16:14:38

; layer_height = 0.3
; perimeters = 2
; top_solid_layers = 1
; bottom_solid_layers = 1
; fill_density = 0.30
; perimeter_speed = 20
; infill_speed = 10
; travel_speed = 130
; nozzle_diameter = 0.4
; filament_diameter = 1.75
; extrusion_multiplier = 1
; perimeters extrusion width = 0.42mm
; infill extrusion width = 0.42mm
; solid infill extrusion width = 0.42mm
; top infill extrusion width = 0.42mm
; first layer extrusion width = 0.60mm

G21 ; set units to millimeters
M107
M190 S65 ; wait for bed temperature to be reached
M104 S195 ; set temperature
G28 ; home all axes
G1 Z5 F5000 ; lift nozzle
M109 S195 ; wait for temperature to be reached
G90 ; use absolute coordinates
G92 E0
M82 ; use absolute distances for extrusion
G1 F1800.000 E-1.00000
G92 E0
G1 Z0.300 F7800.000
G1 X78.189 Y35.951
G1 F1800.000 E1.00000
G1 X78.599 Y35.281 F600.000 E1.05458
G1 X78.919 Y34.851 E1.09182
G1 X79.269 Y34.461 E1.12823
G1 X79.849 Y33.921 E1.18329
G1 X80.279 Y33.601 E1.22054
G1 X80.719 Y33.321 E1.25677
G1 X80.949 Y33.191 E1.27513
G1 X81.669 Y32.871 E1.32988
G1 X82.429 Y32.631 E1.38525
G1 X83.209 Y32.491 E1.44031
G1 X83.469 Y32.461 E1.45850
G1 X83.999 Y32.441 E1.49535
G1 X143.999 Y32.441 E5.66427
G1 X144.529 Y32.461 E5.70112
G1 X145.049 Y32.531 E5.73758
G1 X145.569 Y32.631 E5.77437
G1 X146.079 Y32.781 E5.81131
G1 X146.569 Y32.971 E5.84783
G1 X147.049 Y33.191 E5.88451
G1 X147.719 Y33.601 E5.93909
G1 X148.349 Y34.091 E5.99455
G1 X148.909 Y34.651 E6.04957
G1 X149.399 Y35.281 E6.10503
G1 X149.809 Y35.951 E6.15961
G1 X150.129 Y36.671 E6.21435
G1 X150.369 Y37.431 E6.26973
G1 X150.509 Y38.211 E6.32479
G1 X150.539 Y38.471 E6.34298
G1 X150.559 Y39.001 E6.37983
G1 X150.559 Y158.991 E14.71698
G1 X150.539 Y159.521 E14.75383
G1 X150.509 Y159.781 E14.77201
G1 X150.369 Y160.561 E14.82708
G1 X150.129 Y161.321 E14.88245
G1 X149.809 Y162.041 E14.93720
G1 X149.679 Y162.271 E14.95556
G1 X149.399 Y162.711 E14.99179
G1 X149.079 Y163.141 E15.02904
G1 X148.539 Y163.721 E15.08410
G1 X148.149 Y164.071 E15.12051
G1 X147.719 Y164.391 E15.15775
G1 X147.049 Y164.801 E15.21233
G1 X146.329 Y165.121 E15.26707
G1 X145.569 Y165.361 E15.32245
G1 X144.789 Y165.501 E15.37751
G1 X144.529 Y165.531 E15.39570
G1 X143.999 Y165.551 E15.43255
G1 X83.999 Y165.551 E19.60147
G1 X83.469 Y165.531 E19.63832
G1 X82.949 Y165.461 E19.67478
G1 X82.429 Y165.361 E19.71157
G1 X81.919 Y165.211 E19.74851
G1 X81.429 Y165.021 E19.78503
G1 X80.949 Y164.801 E19.82171
G1 X80.279 Y164.391 E19.87629
G1 X79.649 Y163.901 E19.93175
G1 X79.089 Y163.341 E19.98677
G1 X78.599 Y162.711 E20.04223
G1 X78.189 Y162.041 E20.09681
G1 X77.869 Y161.321 E20.15155
G1 X77.629 Y160.561 E20.20693
G1 X77.489 Y159.781 E20.26199
G1 X77.459 Y159.521 E20.28018
G1 X77.439 Y158.991 E20.31703
G1 X77.439 Y39.001 E28.65418
G1 X77.459 Y38.471 E28.69103
G1 X77.489 Y38.211 E28.70921
G1 X77.629 Y37.431 E28.76428
G1 X77.869 Y36.671 E28.81965
G1 X78.154 Y36.027 E28.86859
G1 F1800.000 E27.86859
G92 E0
G1 X136.697 Y92.201 F7800.000
G1 F1800.000 E1.00000
G1 X136.977 Y91.970 F600.000 E1.02518
G1 X137.296 Y91.802 E1.05026
G1 X137.641 Y91.695 E1.07540
G1 X137.999 Y91.662 E1.10032
G1 X138.358 Y91.695 E1.12541
G1 X138.706 Y91.802 E1.15072
G1 X139.021 Y91.970 E1.17549
G1 X139.301 Y92.199 E1.20064
G1 X139.531 Y92.481 E1.22592
G1 X139.698 Y92.797 E1.25071
G1 X139.804 Y93.136 E1.27545
G1 X139.841 Y93.501 E1.30093
G1 X139.804 Y93.863 E1.32616
G1 X139.698 Y94.206 E1.35116
G1 X139.530 Y94.521 E1.37592
G1 X139.303 Y94.798 E1.40083
G1 X139.023 Y95.030 E1.42607
G1 X138.703 Y95.202 E1.45134
G1 X138.097 Y95.382 E1.49522
G1 X138.097 Y95.558 E1.50747
G1 X139.277 Y95.915 E1.59313
G1 X139.855 Y96.222 E1.63860
G1 X140.361 Y96.637 E1.68404
G1 X140.778 Y97.145 E1.72970
G1 X141.084 Y97.721 E1.77507
G1 X141.276 Y98.348 E1.82061
G1 X141.341 Y99.001 E1.86621
G1 X141.276 Y99.652 E1.91166
G1 X141.084 Y100.279 E1.95720
G1 X140.777 Y100.856 E2.00264
G1 X140.361 Y101.361 E2.04810
G1 X139.857 Y101.776 E2.09344
G1 X139.230 Y102.113 E2.14288
G1 X139.530 Y102.479 E2.17577
G1 X139.698 Y102.795 E2.20062
G1 X139.804 Y103.141 E2.22574
G1 X139.841 Y103.501 E2.25092
G1 X139.804 Y103.863 E2.27617
G1 X139.698 Y104.206 E2.30116
G1 X139.530 Y104.521 E2.32592
G1 X139.303 Y104.798 E2.35084
G1 X139.023 Y105.030 E2.37608
G1 X138.703 Y105.202 E2.40135
G1 X138.354 Y105.306 E2.42661
G1 X137.999 Y105.338 E2.45142
G1 X137.646 Y105.305 E2.47605
G1 X137.299 Y105.202 E2.50115
G1 X136.974 Y105.030 E2.52674
G1 X136.695 Y104.796 E2.55202
G1 X136.473 Y104.523 E2.57648
G1 X136.299 Y104.206 E2.60159
G1 X136.196 Y103.859 E2.62680
G1 X136.159 Y103.501 E2.65178
G1 X136.196 Y103.145 E2.67666
G1 X136.299 Y102.795 E2.70199
G1 X136.473 Y102.477 E2.72721
G1 X136.770 Y102.113 E2.75984
G1 X136.143 Y101.776 E2.80927
G1 X135.639 Y101.361 E2.85462
G1 X135.224 Y100.857 E2.89997
G1 X134.913 Y100.279 E2.94560
G1 X134.723 Y99.649 E2.99132
G1 X134.662 Y99.001 E3.03652
G1 X134.723 Y98.351 E3.08187
G1 X134.913 Y97.721 E3.12760
G1 X135.223 Y97.144 E3.17315
G1 X135.639 Y96.637 E3.21870
G1 X136.145 Y96.222 E3.26414
G1 X136.723 Y95.915 E3.30961
G1 X137.903 Y95.558 E3.39527
G1 X137.903 Y95.382 E3.40751
G1 X137.299 Y95.202 E3.45125
G1 X136.974 Y95.030 E3.47684
G1 X136.695 Y94.796 E3.50211
G1 X136.473 Y94.523 E3.52656
G1 X136.299 Y94.206 E3.55168
G1 X136.196 Y93.859 E3.57689
G1 X136.159 Y93.502 E3.60183
G1 X136.196 Y93.141 E3.62703
G1 X136.299 Y92.797 E3.65199
G1 X136.471 Y92.478 E3.67714
G1 X136.644 Y92.266 E3.69616
G1 X137.069 Y92.627 F7800.000
G1 X137.288 Y92.436 F600.000 E3.71636
G1 X137.510 Y92.319 E3.73384
G1 X137.750 Y92.244 E3.75133
G1 X137.999 Y92.221 E3.76867
G1 X138.249 Y92.244 E3.78615
G1 X138.491 Y92.319 E3.80370
G1 X138.710 Y92.436 E3.82099
G1 X138.905 Y92.595 E3.83846
G1 X139.064 Y92.790 E3.85597
G1 X139.181 Y93.011 E3.87335
G1 X139.255 Y93.249 E3.89062
G1 X139.281 Y93.501 E3.90824
G1 X139.255 Y93.751 E3.92569
G1 X139.181 Y93.991 E3.94313
G1 X139.064 Y94.210 E3.96042
G1 X138.906 Y94.404 E3.97781
G1 X138.711 Y94.565 E3.99537
G1 X138.490 Y94.684 E4.01283
G1 X138.249 Y94.755 E4.03024
G1 X137.999 Y94.781 E4.04774
G1 X137.750 Y94.755 E4.06509
G1 X137.511 Y94.684 E4.08245
G1 X137.287 Y94.565 E4.10009
G1 X137.094 Y94.403 E4.11759
G1 X136.937 Y94.211 E4.13483
G1 X136.816 Y93.991 E4.15228
G1 X136.745 Y93.750 E4.16977
G1 X136.719 Y93.501 E4.18711
G1 X136.745 Y93.250 E4.20464
G1 X136.816 Y93.012 E4.22196
G1 X136.936 Y92.789 E4.23950
G1 X137.016 Y92.692 E4.24822
G1 X136.997 Y92.346 F7800.000
G1 X137.642 Y90.304
G1 X137.299 Y90.202 F600.000 E4.27302
G1 X136.974 Y90.030 E4.29863
G1 X136.695 Y89.796 E4.32390
G1 X136.473 Y89.523 E4.34835
G1 X136.299 Y89.206 E4.37347
G1 X136.196 Y88.859 E4.39868
G1 X136.159 Y88.502 E4.42362
G1 X136.196 Y88.141 E4.44882
G1 X136.299 Y87.797 E4.47378
G1 X136.471 Y87.478 E4.49893
G1 X136.697 Y87.201 E4.52376
G1 X136.977 Y86.970 E4.54894
G1 X137.296 Y86.802 E4.57403
G1 X137.641 Y86.695 E4.59916
G1 X137.999 Y86.662 E4.62409
G1 X138.358 Y86.695 E4.64917
G1 X138.706 Y86.802 E4.67448
G1 X139.021 Y86.970 E4.69925
G1 X139.301 Y87.199 E4.72440
G1 X139.531 Y87.481 E4.74968
G1 X139.698 Y87.797 E4.77447
G1 X139.804 Y88.136 E4.79921
G1 X139.841 Y88.501 E4.82469
G1 X139.804 Y88.863 E4.84992
G1 X139.698 Y89.206 E4.87492
G1 X139.530 Y89.521 E4.89968
G1 X139.303 Y89.798 E4.92459
G1 X139.023 Y90.030 E4.94983
G1 X138.703 Y90.202 E4.97511
G1 X138.358 Y90.304 E5.00007
G1 X137.999 Y90.341 E5.02519
G1 X137.725 Y90.313 E5.04432
G1 X137.790 Y89.759 F7800.000
G1 X137.511 Y89.684 F600.000 E5.06438
G1 X137.287 Y89.565 E5.08203
G1 X137.094 Y89.403 E5.09953
G1 X136.937 Y89.211 E5.11677
G1 X136.816 Y88.991 E5.13422
G1 X136.745 Y88.750 E5.15171
G1 X136.719 Y88.501 E5.16905
G1 X136.745 Y88.250 E5.18658
G1 X136.816 Y88.012 E5.20390
G1 X136.936 Y87.789 E5.22144
G1 X137.094 Y87.596 E5.23881
G1 X137.288 Y87.436 E5.25621
G1 X137.510 Y87.319 E5.27369
G1 X137.750 Y87.244 E5.29119
G1 X137.999 Y87.221 E5.30852
G1 X138.249 Y87.244 E5.32600
G1 X138.491 Y87.319 E5.34355
G1 X138.710 Y87.436 E5.36084
G1 X138.905 Y87.595 E5.37831
G1 X139.064 Y87.790 E5.39582
G1 X139.181 Y88.011 E5.41320
G1 X139.255 Y88.249 E5.43048
G1 X139.281 Y88.501 E5.44810
G1 X139.255 Y88.751 E5.46554
G1 X139.181 Y88.991 E5.48298
G1 X139.064 Y89.210 E5.50027
G1 X138.906 Y89.404 E5.51767
G1 X138.711 Y89.565 E5.53522
G1 X138.490 Y89.684 E5.55268
G1 X138.249 Y89.755 E5.57009
G1 X137.999 Y89.781 E5.58759
G1 X137.873 Y89.768 E5.59639
G1 X137.596 Y89.974 F7800.000
G1 F1800.000 E4.59639
G92 E0
G1 X137.999 Y85.341 F7800.000
G1 F1800.000 E1.00000
G1 X137.637 Y85.304 F600.000 E1.02523
G1 X137.299 Y85.199 E1.04981
G1 X136.977 Y85.033 E1.07506
G1 X136.695 Y84.796 E1.10059
G1 X136.473 Y84.523 E1.12505
G1 X136.299 Y84.206 E1.15017
G1 X136.196 Y83.859 E1.17537
G1 X136.159 Y83.502 E1.20031
G1 X136.196 Y83.141 E1.22552
G1 X136.299 Y82.797 E1.25047
G1 X136.471 Y82.478 E1.27563
G1 X136.697 Y82.201 E1.30045
G1 X136.977 Y81.970 E1.32563
G1 X137.296 Y81.802 E1.35072
G1 X137.641 Y81.695 E1.37585
G1 X137.999 Y81.662 E1.40078
G1 X138.358 Y81.695 E1.42586
G1 X138.706 Y81.802 E1.45118
G1 X139.021 Y81.970 E1.47595
G1 X139.301 Y82.199 E1.50109
G1 X139.531 Y82.481 E1.52637
G1 X139.698 Y82.797 E1.55116
G1 X139.804 Y83.136 E1.57590
G1 X139.841 Y83.501 E1.60139
G1 X139.804 Y83.863 E1.62662
G1 X139.698 Y84.206 E1.65161
G1 X139.530 Y84.521 E1.67638
G1 X139.303 Y84.798 E1.70129
G1 X139.021 Y85.033 E1.72678
G1 X138.703 Y85.199 E1.75171
G1 X138.362 Y85.304 E1.77646
G1 X138.082 Y85.333 E1.79605
G1 X138.041 Y84.777 F7800.000
G1 X137.749 Y84.755 F600.000 E1.81637
G1 X137.511 Y84.682 E1.83368
G1 X137.288 Y84.566 E1.85117
G1 X137.094 Y84.403 E1.86875
G1 X136.937 Y84.211 E1.88599
G1 X136.816 Y83.991 E1.90345
G1 X136.745 Y83.750 E1.92093
G1 X136.719 Y83.501 E1.93828
G1 X136.745 Y83.250 E1.95581
G1 X136.816 Y83.012 E1.97312
G1 X136.936 Y82.789 E1.99067
G1 X137.094 Y82.596 E2.00803
G1 X137.288 Y82.436 E2.02544
G1 X137.510 Y82.319 E2.04292
G1 X137.750 Y82.244 E2.06041
G1 X137.999 Y82.221 E2.07774
G1 X138.249 Y82.244 E2.09522
G1 X138.491 Y82.319 E2.11277
G1 X138.710 Y82.436 E2.13007
G1 X138.905 Y82.595 E2.14753
G1 X139.064 Y82.790 E2.16505
G1 X139.181 Y83.011 E2.18243
G1 X139.255 Y83.249 E2.19970
G1 X139.281 Y83.501 E2.21732
G1 X139.255 Y83.751 E2.23476
G1 X139.181 Y83.991 E2.25221
G1 X139.064 Y84.210 E2.26950
G1 X138.906 Y84.404 E2.28689
G1 X138.710 Y84.566 E2.30453
G1 X138.490 Y84.682 E2.32184
G1 X138.251 Y84.755 E2.33920
G1 X138.124 Y84.768 E2.34806
G1 X137.891 Y85.028 F7800.000
G1 F1800.000 E1.34806
G92 E0
G1 X137.999 Y80.341 F7800.000
G1 F1800.000 E1.00000
G1 X137.637 Y80.304 F600.000 E1.02523
G1 X137.299 Y80.199 E1.04981
G1 X136.977 Y80.033 E1.07506
G1 X136.695 Y79.796 E1.10059
G1 X136.473 Y79.523 E1.12505
G1 X136.299 Y79.206 E1.15016
G1 X136.196 Y78.859 E1.17537
G1 X136.159 Y78.502 E1.20031
G1 X136.196 Y78.141 E1.22552
G1 X136.299 Y77.797 E1.25047
G1 X136.471 Y77.478 E1.27563
G1 X136.771 Y77.111 E1.30856
G1 X136.145 Y76.778 E1.35783
G1 X135.639 Y76.363 E1.40327
G1 X135.223 Y75.856 E1.44883
G1 X134.913 Y75.279 E1.49434
G1 X134.723 Y74.651 E1.53995
G1 X134.662 Y73.999 E1.58546
G1 X134.723 Y73.349 E1.63082
G1 X134.913 Y72.721 E1.67642
G1 X135.224 Y72.143 E1.72201
G1 X135.639 Y71.639 E1.76736
G1 X136.144 Y71.223 E1.81282
G1 X136.723 Y70.915 E1.85838
G1 X137.904 Y70.558 E1.94414
G1 X137.905 Y70.386 E1.95607
G1 X137.299 Y70.199 E2.00009
G1 X136.977 Y70.033 E2.02534
G1 X136.695 Y69.796 E2.05088
G1 X136.473 Y69.523 E2.07533
G1 X136.300 Y69.207 E2.10036
G1 X136.196 Y68.861 E2.12550
G1 X136.159 Y68.498 E2.15083
G1 X136.196 Y68.141 E2.17574
G1 X136.299 Y67.794 E2.20095
G1 X136.473 Y67.477 E2.22607
G1 X136.697 Y67.201 E2.25075
G1 X136.974 Y66.973 E2.27567
G1 X137.296 Y66.799 E2.30111
G1 X137.646 Y66.695 E2.32647
G1 X137.999 Y66.662 E2.35110
G1 X138.354 Y66.694 E2.37590
G1 X138.706 Y66.799 E2.40143
G1 X139.023 Y66.973 E2.42655
G1 X139.301 Y67.199 E2.45144
G1 X139.530 Y67.479 E2.47658
G1 X139.698 Y67.794 E2.50134
G1 X139.804 Y68.137 E2.52632
G1 X139.841 Y68.498 E2.55153
G1 X139.804 Y68.865 E2.57714
G1 X139.697 Y69.207 E2.60206
G1 X139.530 Y69.521 E2.62674
G1 X139.303 Y69.798 E2.65165
G1 X139.020 Y70.033 E2.67715
G1 X138.703 Y70.199 E2.70208
G1 X138.095 Y70.386 E2.74625
G1 X138.096 Y70.558 E2.75817
G1 X139.277 Y70.915 E2.84393
G1 X139.856 Y71.223 E2.88949
G1 X140.361 Y71.639 E2.93495
G1 X140.777 Y72.144 E2.98040
G1 X141.084 Y72.721 E3.02582
G1 X141.276 Y73.346 E3.07123
G1 X141.341 Y73.999 E3.11684
G1 X141.276 Y74.654 E3.16260
G1 X141.084 Y75.279 E3.20803
G1 X140.778 Y75.855 E3.25336
G1 X140.361 Y76.363 E3.29902
G1 X139.855 Y76.778 E3.34446
G1 X139.229 Y77.111 E3.39373
G1 X139.531 Y77.481 E3.42692
G1 X139.698 Y77.797 E3.45171
G1 X139.804 Y78.136 E3.47646
G1 X139.841 Y78.501 E3.50194
G1 X139.804 Y78.863 E3.52717
G1 X139.698 Y79.206 E3.55216
G1 X139.530 Y79.521 E3.57693
G1 X139.303 Y79.798 E3.60184
G1 X139.021 Y80.033 E3.62733
G1 X138.703 Y80.199 E3.65227
G1 X138.362 Y80.304 E3.67702
G1 X138.082 Y80.333 E3.69660
G1 X138.041 Y79.777 F7800.000
G1 X137.749 Y79.755 F600.000 E3.71692
G1 X137.511 Y79.682 E3.73423
G1 X137.288 Y79.566 E3.75172
G1 X137.094 Y79.403 E3.76931
G1 X136.937 Y79.211 E3.78654
G1 X136.816 Y78.991 E3.80399
G1 X136.745 Y78.750 E3.82148
G1 X136.719 Y78.501 E3.83883
G1 X136.745 Y78.250 E3.85636
G1 X136.816 Y78.012 E3.87368
G1 X136.936 Y77.789 E3.89122
G1 X137.094 Y77.596 E3.90858
G1 X137.288 Y77.436 E3.92599
G1 X137.510 Y77.319 E3.94347
G1 X137.750 Y77.244 E3.96096
G1 X137.999 Y77.221 E3.97829
G1 X138.249 Y77.244 E3.99577
G1 X138.491 Y77.319 E4.01332
G1 X138.710 Y77.436 E4.03062
G1 X138.905 Y77.595 E4.04809
G1 X139.064 Y77.790 E4.06560
G1 X139.181 Y78.011 E4.08298
G1 X139.255 Y78.249 E4.10025
G1 X139.281 Y78.501 E4.11787
G1 X139.255 Y78.751 E4.13532
G1 X139.181 Y78.991 E4.15276
G1 X139.064 Y79.210 E4.17005
G1 X138.906 Y79.404 E4.18744
G1 X138.710 Y79.566 E4.20508
G1 X138.490 Y79.682 E4.22239
G1 X138.251 Y79.755 E4.23975
G1 X138.124 Y79.768 E4.24861
G1 X137.891 Y80.028 F7800.000
G1 F1800.000 E3.24861
G92 E0
G1 X137.999 Y76.781 F7800.000
G1 F1800.000 E1.00000
G1 X137.458 Y76.725 F600.000 E1.03779
G1 X136.936 Y76.568 E1.07565
G1 X136.456 Y76.312 E1.11348
G1 X136.035 Y75.967 E1.15127
G1 X135.688 Y75.545 E1.18923
G1 X135.430 Y75.064 E1.22712
G1 X135.272 Y74.543 E1.26497
G1 X135.221 Y73.999 E1.30294
G1 X135.272 Y73.457 E1.34077
G1 X135.430 Y72.936 E1.37862
G1 X135.689 Y72.455 E1.41653
G1 X136.035 Y72.035 E1.45435
G1 X136.455 Y71.688 E1.49221
G1 X136.936 Y71.432 E1.53006
G1 X137.459 Y71.274 E1.56797
G1 X137.999 Y71.221 E1.60571
G1 X138.541 Y71.274 E1.64358
G1 X139.064 Y71.432 E1.68149
G1 X139.545 Y71.688 E1.71935
G1 X139.965 Y72.035 E1.75720
G1 X140.312 Y72.455 E1.79506
G1 X140.567 Y72.936 E1.83287
G1 X140.727 Y73.456 E1.87069
G1 X140.781 Y73.999 E1.90860
G1 X140.727 Y74.544 E1.94666
G1 X140.567 Y75.064 E1.98449
G1 X140.312 Y75.544 E2.02227
G1 X139.965 Y75.967 E2.06026
G1 X139.544 Y76.312 E2.09805
G1 X139.064 Y76.568 E2.13588
G1 X138.542 Y76.725 E2.17375
G1 X138.082 Y76.772 E2.20588
G1 X137.711 Y77.242 F7800.000
G1 F1800.000 E1.20588
G92 E0
G1 X137.999 Y69.781 F7800.000
G1 F1800.000 E1.00000
G1 X137.749 Y69.755 F600.000 E1.01745
G1 X137.511 Y69.682 E1.03475
G1 X137.288 Y69.566 E1.05224
G1 X137.094 Y69.403 E1.06983
G1 X136.937 Y69.211 E1.08706
G1 X136.817 Y68.991 E1.10449
G1 X136.745 Y68.752 E1.12186
G1 X136.719 Y68.499 E1.13953
G1 X136.745 Y68.250 E1.15687
G1 X136.816 Y68.009 E1.17436
G1 X136.937 Y67.789 E1.19181
G1 X137.094 Y67.596 E1.20912
G1 X137.287 Y67.437 E1.22644
G1 X137.510 Y67.316 E1.24408
G1 X137.752 Y67.244 E1.26162
G1 X137.999 Y67.221 E1.27886
G1 X138.248 Y67.244 E1.29624
G1 X138.491 Y67.316 E1.31384
G1 X138.711 Y67.437 E1.33129
G1 X138.905 Y67.595 E1.34867
G1 X139.064 Y67.790 E1.36614
G1 X139.181 Y68.009 E1.38343
G1 X139.255 Y68.249 E1.40087
G1 X139.281 Y68.499 E1.41831
G1 X139.255 Y68.753 E1.43606
G1 X139.181 Y68.991 E1.45339
G1 X139.064 Y69.210 E1.47066
G1 X138.906 Y69.404 E1.48804
G1 X138.710 Y69.566 E1.50569
G1 X138.490 Y69.682 E1.52299
G1 X138.251 Y69.755 E1.54036
G1 X138.082 Y69.773 E1.55214
G1 X137.866 Y69.994 F7800.000
