; generated by Slic3r 0.9.9 on 2014-12-09 at 07:34:22

; layer_height = 0.3
; perimeters = 1
; top_solid_layers = 1
; bottom_solid_layers = 1
; fill_density = 0.30
; perimeter_speed = 20
; infill_speed = 10
; travel_speed = 130
; nozzle_diameter = 0.4
; filament_diameter = 1.75
; extrusion_multiplier = 1
; perimeters extrusion width = 0.42mm
; infill extrusion width = 0.42mm
; solid infill extrusion width = 0.42mm
; top infill extrusion width = 0.42mm
; first layer extrusion width = 0.60mm

G21 ; set units to millimeters
M107
M190 S65 ; wait for bed temperature to be reached
M104 S195 ; set temperature
G28 ; home all axes
G1 Z5 F5000 ; lift nozzle
M109 S195 ; wait for temperature to be reached
G90 ; use absolute coordinates
G92 E0
M82 ; use absolute distances for extrusion
G1 F1800.000 E-1.00000
G92 E0
G1 Z0.300 F7800.000
G1 X89.490 Y76.340
G1 F1800.000 E1.00000
G1 X90.260 Y75.470 F1080.000 E1.08072
G1 X91.190 Y74.490 E1.17460
G1 X91.870 Y73.810 E1.24142
G1 X92.740 Y73.000 E1.32401
G1 X93.590 Y72.260 E1.40231
G1 X94.660 Y71.370 E1.49902
G1 X96.220 Y70.220 E1.63368
G1 X97.140 Y69.600 E1.71076
G1 X98.170 Y68.960 E1.79502
G1 X99.220 Y68.360 E1.87905
G1 X99.980 Y67.950 E1.93905
G1 X101.190 Y67.360 E2.03258
G1 X102.120 Y66.940 E2.10348
G1 X103.180 Y66.500 E2.18323
G1 X104.230 Y66.120 E2.26082
G1 X105.230 Y65.800 E2.33377
G1 X106.460 Y65.450 E2.42262
G1 X107.270 Y65.250 E2.48059
G1 X108.380 Y65.030 E2.55922
G1 X109.590 Y64.820 E2.64455
G1 X110.640 Y64.680 E2.71815
G1 X111.460 Y64.600 E2.77540
G1 X112.730 Y64.530 E2.86377
G1 X114.130 Y64.500 E2.96107
G1 X115.160 Y64.530 E3.03267
G1 X116.430 Y64.600 E3.12104
G1 X117.250 Y64.680 E3.17829
G1 X118.300 Y64.820 E3.25189
G1 X119.510 Y65.030 E3.33722
G1 X120.640 Y65.260 E3.41735
G1 X121.640 Y65.510 E3.48897
G1 X122.450 Y65.740 E3.54747
G1 X123.660 Y66.120 E3.63559
G1 X124.710 Y66.500 E3.71318
G1 X125.770 Y66.940 E3.79292
G1 X126.920 Y67.460 E3.88062
G1 X127.870 Y67.930 E3.95426
G1 X128.640 Y68.340 E4.01487
G1 X129.750 Y68.980 E4.10390
G1 X130.710 Y69.570 E4.18219
G1 X131.460 Y70.070 E4.24482
G1 X132.400 Y70.750 E4.32544
G1 X133.430 Y71.540 E4.41563
G1 X134.150 Y72.130 E4.48031
G1 X135.150 Y73.000 E4.57240
G1 X136.020 Y73.810 E4.65500
G1 X136.700 Y74.490 E4.72182
G1 X138.240 Y76.160 E4.87966
G1 X139.040 Y77.100 E4.96542
G1 X140.440 Y78.910 E5.12441
G1 X141.160 Y79.920 E5.21060
G1 X141.740 Y80.790 E5.28325
G1 X143.010 Y82.850 E5.45139
G1 X143.940 Y84.530 E5.58482
G1 X144.620 Y85.870 E5.68922
G1 X145.210 Y87.110 E5.78464
G1 X146.020 Y88.970 E5.92560
G1 X146.980 Y91.370 E6.10520
G1 X147.960 Y94.180 E6.31198
G1 X148.750 Y96.770 E6.50012
G1 X149.420 Y99.230 E6.67727
G1 X150.070 Y101.970 E6.87294
G1 X150.680 Y104.930 E7.08293
G1 X151.140 Y107.570 E7.26912
G1 X151.560 Y110.450 E7.47135
G1 X151.960 Y113.870 E7.71060
G1 X152.210 Y116.630 E7.90315
G1 X152.410 Y119.740 E8.11969
G1 X152.530 Y122.720 E8.32691
G1 X152.570 Y125.870 E8.54580
G1 X152.530 Y129.160 E8.77441
G1 X152.410 Y132.160 E8.98302
G1 X152.210 Y135.280 E9.20025
G1 X151.960 Y138.040 E9.39281
G1 X151.560 Y141.460 E9.63206
G1 X151.140 Y144.330 E9.83359
G1 X150.680 Y146.970 E10.01979
G1 X150.070 Y149.940 E10.23046
G1 X149.420 Y152.680 E10.42612
G1 X148.750 Y155.140 E10.60328
G1 X147.960 Y157.720 E10.79075
G1 X146.990 Y160.520 E10.99665
G1 X146.020 Y162.950 E11.17844
G1 X145.210 Y164.800 E11.31877
G1 X144.550 Y166.180 E11.42505
G1 X143.940 Y167.380 E11.51859
G1 X143.010 Y169.060 E11.65201
G1 X141.740 Y171.110 E11.81957
G1 X141.160 Y171.980 E11.89222
G1 X140.440 Y172.990 E11.97840
G1 X139.210 Y174.590 E12.11862
G1 X138.420 Y175.540 E12.20447
G1 X137.490 Y176.580 E12.30141
G1 X136.830 Y177.280 E12.36826
G1 X135.840 Y178.260 E12.46505
G1 X135.040 Y179.000 E12.54077
G1 X134.340 Y179.620 E12.60574
G1 X133.300 Y180.470 E12.69907
G1 X132.580 Y181.030 E12.76244
G1 X131.410 Y181.870 E12.86252
G1 X129.800 Y182.900 E12.99532
G1 X128.850 Y183.450 E13.07159
G1 X127.870 Y183.980 E13.14900
G1 X126.920 Y184.450 E13.22265
G1 X125.700 Y185.000 E13.31563
G1 X124.710 Y185.400 E13.38982
G1 X123.920 Y185.690 E13.44830
G1 X122.380 Y186.190 E13.56080
G1 X120.400 Y186.700 E13.70286
G1 X119.590 Y186.870 E13.76037
G1 X118.300 Y187.090 E13.85129
G1 X117.250 Y187.230 E13.92490
G1 X116.430 Y187.310 E13.98214
G1 X115.100 Y187.390 E14.07472
G1 X114.090 Y187.410 E14.14491
G1 X113.040 Y187.400 E14.21787
G1 X111.720 Y187.330 E14.30971
G1 X110.400 Y187.200 E14.40187
G1 X109.590 Y187.090 E14.45867
G1 X108.300 Y186.870 E14.54960
G1 X107.270 Y186.650 E14.62278
G1 X106.460 Y186.450 E14.68075
G1 X105.190 Y186.090 E14.77247
G1 X103.970 Y185.690 E14.86168
G1 X103.160 Y185.390 E14.92169
G1 X102.190 Y185.000 E14.99433
G1 X101.190 Y184.550 E15.07053
G1 X100.220 Y184.080 E15.14542
G1 X99.220 Y183.550 E15.22406
G1 X98.120 Y182.920 E15.31213
G1 X97.360 Y182.450 E15.37422
G1 X96.220 Y181.690 E15.46942
G1 X95.490 Y181.160 E15.53210
G1 X94.460 Y180.370 E15.62229
G1 X93.550 Y179.620 E15.70423
G1 X92.050 Y178.260 E15.84491
G1 X91.090 Y177.310 E15.93876
G1 X90.420 Y176.610 E16.00608
G1 X89.610 Y175.710 E16.09021
G1 X88.680 Y174.590 E16.19136
G1 X87.450 Y172.990 E16.33159
G1 X86.850 Y172.150 E16.40331
G1 X86.170 Y171.150 E16.48734
G1 X84.880 Y169.060 E16.65799
G1 X83.950 Y167.380 E16.79141
G1 X83.260 Y166.020 E16.89737
G1 X82.770 Y164.990 E16.97662
G1 X81.760 Y162.710 E17.14989
G1 X80.890 Y160.490 E17.31556
G1 X79.940 Y157.750 E17.51706
G1 X79.200 Y155.370 E17.69024
G1 X78.420 Y152.470 E17.89890
G1 X77.820 Y149.940 E18.07956
G1 X77.210 Y146.970 E18.29023
G1 X76.750 Y144.330 E18.47643
G1 X76.330 Y141.460 E18.67797
G1 X75.930 Y138.040 E18.91721
G1 X75.680 Y135.280 E19.10977
G1 X75.490 Y132.330 E19.31517
G1 X75.360 Y129.210 E19.53214
G1 X75.310 Y126.050 E19.75173
G1 X75.360 Y122.720 E19.98313
G1 X75.480 Y119.740 E20.19035
G1 X75.680 Y116.630 E20.40689
G1 X75.930 Y113.870 E20.59945
G1 X76.330 Y110.450 E20.83869
G1 X76.750 Y107.570 E21.04092
G1 X77.210 Y104.930 E21.22712
G1 X77.820 Y101.970 E21.43710
G1 X78.420 Y99.440 E21.61777
G1 X79.200 Y96.550 E21.82576
G1 X79.940 Y94.160 E21.99960
G1 X80.900 Y91.400 E22.20264
G1 X81.870 Y88.940 E22.38637
G1 X82.690 Y87.080 E22.52761
G1 X83.270 Y85.870 E22.62084
G1 X83.950 Y84.530 E22.72525
G1 X84.880 Y82.850 E22.85867
G1 X86.170 Y80.750 E23.02992
G1 X86.850 Y79.750 E23.11394
G1 X87.450 Y78.910 E23.18566
G1 X88.680 Y77.310 E23.32589
G1 X89.436 Y76.404 E23.40789
G1 F1800.000 E22.40789
G92 E0
G1 X113.738 Y117.959 F7800.000
G1 F1800.000 E1.00000
G1 X114.159 Y117.959 F1080.000 E1.02922
G1 X114.388 Y120.885 E1.23320
G1 X114.511 Y123.663 E1.42639
G1 X114.542 Y126.214 E1.60363
G1 X114.496 Y128.759 E1.78054
G1 X114.373 Y131.280 E1.95592
G1 X114.159 Y133.957 E2.14247
G1 X113.738 Y133.957 E2.17169
G1 X113.509 Y131.030 E2.37569
G1 X113.385 Y128.251 E2.56898
G1 X113.354 Y125.701 E2.74618
G1 X113.401 Y123.156 E2.92304
G1 X113.524 Y120.637 E3.09827
G1 X113.731 Y118.042 E3.27913
G1 X113.192 Y117.866 F7800.000
G1 X113.440 Y115.694 F1080.000 E3.43103
G1 X113.783 Y113.333 E3.59681
G1 X114.114 Y113.333 E3.61982
G1 X114.363 Y114.988 E3.73615
G1 X114.546 Y116.410 E3.83572
G1 X114.729 Y118.110 E3.95454
G1 X114.858 Y119.596 E4.05820
G1 X114.974 Y121.358 E4.18085
G1 X115.044 Y122.882 E4.28687
G1 X115.086 Y124.417 E4.39360
G1 X115.100 Y125.956 E4.50052
G1 X115.086 Y127.498 E4.60767
G1 X115.044 Y129.033 E4.71433
G1 X114.959 Y130.813 E4.83815
G1 X114.858 Y132.319 E4.94306
G1 X114.729 Y133.806 E5.04675
G1 X114.546 Y135.507 E5.16564
G1 X114.362 Y136.928 E5.26516
G1 X114.114 Y138.583 E5.38145
G1 X113.783 Y138.583 E5.40446
G1 X113.535 Y136.928 E5.52074
G1 X113.295 Y135.024 E5.65407
G1 X113.122 Y133.312 E5.77364
G1 X112.985 Y131.567 E5.89521
G1 X112.885 Y129.797 E6.01841
G1 X112.803 Y126.984 E6.21394
G1 X112.799 Y125.442 E6.32111
G1 X112.822 Y123.905 E6.42793
G1 X112.873 Y122.371 E6.53453
G1 X112.953 Y120.851 E6.64029
G1 X113.059 Y119.347 E6.74507
G1 X113.184 Y117.949 E6.84260
G1 X112.638 Y117.811 F7800.000
G1 X112.798 Y116.344 F1080.000 E6.94512
G1 X113.016 Y114.674 E7.06210
G1 X113.229 Y113.286 E7.15972
G1 X113.505 Y111.719 E7.27023
G1 X113.814 Y110.186 E7.37892
G1 X114.086 Y110.186 E7.39785
G1 X114.474 Y112.160 E7.53759
G1 X114.777 Y113.975 E7.66548
G1 X115.040 Y115.863 E7.79791
G1 X115.259 Y117.810 E7.93408
G1 X115.432 Y119.806 E8.07325
G1 X115.557 Y121.837 E8.21461
G1 X115.632 Y123.892 E8.35750
G1 X115.657 Y125.956 E8.50095
G1 X115.632 Y128.025 E8.64469
G1 X115.557 Y130.078 E8.78743
G1 X115.432 Y132.111 E8.92899
G1 X115.259 Y134.105 E9.06806
G1 X115.040 Y136.053 E9.20427
G1 X114.777 Y137.941 E9.33668
G1 X114.474 Y139.754 E9.46445
G1 X114.084 Y141.728 E9.60425
G1 X113.813 Y141.728 E9.62302
G1 X113.464 Y139.976 E9.74716
G1 X113.192 Y138.402 E9.85814
G1 X112.918 Y136.530 E9.98961
G1 X112.714 Y134.842 E10.10776
G1 X112.524 Y132.864 E10.24582
G1 X112.396 Y131.098 E10.36884
G1 X112.317 Y129.567 E10.47537
G1 X112.259 Y127.766 E10.60059
G1 X112.240 Y126.217 E10.70819
G1 X112.254 Y124.407 E10.83395
G1 X112.296 Y122.862 E10.94135
G1 X112.381 Y121.072 E11.06588
G1 X112.484 Y119.553 E11.17167
G1 X112.629 Y117.894 E11.28738
G1 X112.083 Y117.756 F7800.000
G1 X112.274 Y116.036 F1080.000 E11.40757
G1 X112.499 Y114.361 E11.52505
G1 X112.756 Y112.737 E11.63927
G1 X113.043 Y111.176 E11.74954
G1 X113.403 Y109.478 E11.87014
G1 X113.837 Y107.701 E11.99726
G1 X114.060 Y107.701 E12.01274
G1 X114.540 Y109.685 E12.15461
G1 X114.981 Y111.837 E12.30720
G1 X115.363 Y114.124 E12.46836
G1 X115.652 Y116.278 E12.61933
G1 X115.907 Y118.754 E12.79230
G1 X116.072 Y121.040 E12.95151
G1 X116.175 Y123.359 E13.11281
G1 X116.214 Y125.956 E13.29329
G1 X116.182 Y128.296 E13.45591
G1 X116.072 Y130.877 E13.63542
G1 X115.907 Y133.161 E13.79448
G1 X115.652 Y135.639 E13.96757
G1 X115.363 Y137.791 E14.11842
G1 X114.981 Y140.078 E14.27959
G1 X114.540 Y142.230 E14.43221
G1 X114.060 Y144.215 E14.57407
G1 X113.837 Y144.215 E14.58954
G1 X113.310 Y142.022 E14.74621
G1 X112.835 Y139.631 E14.91563
G1 X112.534 Y137.791 E15.04516
G1 X112.274 Y135.880 E15.17917
G1 X112.059 Y133.912 E15.31671
G1 X111.909 Y132.152 E15.43943
G1 X111.797 Y130.364 E15.56390
G1 X111.722 Y128.555 E15.68970
G1 X111.686 Y126.739 E15.81595
G1 X111.689 Y124.916 E15.94259
G1 X111.731 Y123.100 E16.06884
G1 X111.811 Y121.295 E16.19437
G1 X111.929 Y119.510 E16.31865
G1 X112.075 Y117.839 E16.43522
G1 X111.529 Y117.700 F7800.000
G1 X111.721 Y115.969 F1080.000 E16.55628
G1 X111.982 Y114.043 E16.69133
G1 X112.286 Y112.188 E16.82191
G1 X112.629 Y110.414 E16.94743
G1 X113.103 Y108.335 E17.09562
G1 X113.618 Y106.432 E17.23257
G1 X113.861 Y105.624 E17.29122
G1 X114.036 Y105.624 E17.30342
G1 X114.643 Y107.745 E17.45670
G1 X115.177 Y109.985 E17.61672
G1 X115.651 Y112.414 E17.78866
G1 X116.051 Y114.997 E17.97025
G1 X116.368 Y117.700 E18.15939
G1 X116.596 Y120.493 E18.35408
G1 X116.731 Y123.342 E18.55226
G1 X116.771 Y125.956 E18.73393
G1 X116.731 Y128.573 E18.91580
G1 X116.596 Y131.424 E19.11407
G1 X116.368 Y134.216 E19.30870
G1 X116.051 Y136.919 E19.49781
G1 X115.651 Y139.501 E19.67937
G1 X115.177 Y141.931 E19.85136
G1 X114.643 Y144.169 E20.01128
G1 X114.036 Y146.292 E20.16465
G1 X113.861 Y146.292 E20.17685
G1 X113.513 Y145.118 E20.26191
G1 X113.004 Y143.176 E20.40135
G1 X112.540 Y141.067 E20.55145
G1 X112.207 Y139.273 E20.67824
G1 X111.913 Y137.399 E20.81004
G1 X111.662 Y135.457 E20.94608
G1 X111.458 Y133.461 E21.08546
G1 X111.301 Y131.423 E21.22749
G1 X111.204 Y129.615 E21.35334
G1 X111.140 Y127.529 E21.49834
G1 X111.126 Y125.694 E21.62581
G1 X111.158 Y123.604 E21.77107
G1 X111.227 Y121.782 E21.89771
G1 X111.354 Y119.723 E22.04109
G1 X111.521 Y117.784 E22.17632
G1 X110.975 Y117.645 F7800.000
G1 X111.198 Y115.655 F1080.000 E22.31551
G1 X111.504 Y113.484 E22.46782
G1 X111.821 Y111.634 E22.59824
G1 X112.222 Y109.653 E22.73867
G1 X112.715 Y107.603 E22.88514
G1 X113.246 Y105.736 E23.02001
G1 X113.880 Y103.833 E23.15939
G1 X114.017 Y103.833 E23.16893
G1 X114.432 Y105.047 E23.25804
G1 X114.759 Y106.094 E23.33429
G1 X115.130 Y107.407 E23.42909
G1 X115.434 Y108.608 E23.51514
G1 X115.721 Y109.867 E23.60491
G1 X115.991 Y111.184 E23.69827
G1 X116.239 Y112.550 E23.79479
G1 X116.465 Y113.959 E23.89394
G1 X116.667 Y115.408 E23.99557
G1 X116.844 Y116.893 E24.09949
G1 X116.994 Y118.404 E24.20499
G1 X117.117 Y119.940 E24.31207
G1 X117.213 Y121.493 E24.42019
G1 X117.280 Y123.063 E24.52931
G1 X117.328 Y125.956 E24.73041
G1 X117.280 Y128.853 E24.93169
G1 X117.213 Y130.421 E25.04078
G1 X117.117 Y131.977 E25.14904
G1 X116.994 Y133.512 E25.25609
G1 X116.844 Y135.023 E25.36157
G1 X116.667 Y136.508 E25.46546
G1 X116.465 Y137.956 E25.56704
G1 X116.239 Y139.368 E25.66640
G1 X115.991 Y140.732 E25.76276
G1 X115.721 Y142.048 E25.85611
G1 X115.434 Y143.307 E25.94583
G1 X115.130 Y144.507 E26.03185
G1 X114.760 Y145.821 E26.12669
G1 X114.432 Y146.868 E26.20291
G1 X114.017 Y148.082 E26.29207
G1 X113.880 Y148.082 E26.30161
G1 X113.246 Y146.178 E26.44104
G1 X112.715 Y144.312 E26.57586
G1 X112.222 Y142.262 E26.72236
G1 X111.821 Y140.281 E26.86278
G1 X111.504 Y138.431 E26.99319
G1 X111.198 Y136.261 E27.14546
G1 X110.975 Y134.271 E27.28463
G1 X110.798 Y132.234 E27.42666
G1 X110.671 Y130.160 E27.57103
G1 X110.594 Y128.064 E27.71676
G1 X110.569 Y125.958 E27.86310
G1 X110.594 Y123.850 E28.00958
G1 X110.671 Y121.755 E28.15526
G1 X110.798 Y119.682 E28.29960
G1 X110.966 Y117.728 E28.43582
G1 X110.420 Y117.590 F7800.000
G1 X110.677 Y115.337 F1080.000 E28.59340
G1 X110.992 Y113.162 E28.74611
G1 X111.359 Y111.077 E28.89321
G1 X111.774 Y109.106 E29.03313
G1 X112.228 Y107.265 E29.16487
G1 X112.769 Y105.394 E29.30018
G1 X113.329 Y103.736 E29.42184
G1 X113.948 Y102.152 E29.54000
G1 X114.455 Y103.431 E29.63563
G1 X114.850 Y104.538 E29.71725
G1 X115.238 Y105.753 E29.80588
G1 X115.616 Y107.069 E29.90105
G1 X115.975 Y108.477 E30.00202
G1 X116.313 Y109.968 E30.10819
G1 X116.624 Y111.532 E30.21898
G1 X116.867 Y112.925 E30.31723
G1 X117.121 Y114.604 E30.43524
G1 X117.312 Y116.080 E30.53868
G1 X117.502 Y117.843 E30.66188
G1 X117.635 Y119.382 E30.76923
G1 X117.740 Y120.943 E30.87788
G1 X117.827 Y122.780 E31.00568
G1 X117.871 Y124.366 E31.11596
G1 X117.885 Y125.956 E31.22644
G1 X117.871 Y127.549 E31.33710
G1 X117.827 Y129.135 E31.44731
G1 X117.740 Y130.975 E31.57530
G1 X117.635 Y132.533 E31.68384
G1 X117.502 Y134.073 E31.79120
G1 X117.312 Y135.837 E31.91447
G1 X117.121 Y137.312 E32.01786
G1 X116.867 Y138.989 E32.13572
G1 X116.624 Y140.384 E32.23406
G1 X116.313 Y141.948 E32.34491
G1 X115.976 Y143.438 E32.45101
G1 X115.616 Y144.847 E32.55207
G1 X115.238 Y146.163 E32.64722
G1 X114.849 Y147.379 E32.73590
G1 X114.455 Y148.484 E32.81741
G1 X113.948 Y149.764 E32.91306
G1 X113.329 Y148.180 E33.03123
G1 X112.824 Y146.697 E33.14007
G1 X112.334 Y145.040 E33.26012
G1 X111.872 Y143.231 E33.38988
G1 X111.448 Y141.286 E33.52818
G1 X111.069 Y139.227 E33.67365
G1 X110.742 Y137.070 E33.82523
G1 X110.499 Y135.084 E33.96426
G1 X110.283 Y132.792 E34.12422
G1 X110.142 Y130.712 E34.26906
G1 X110.052 Y128.606 E34.41549
G1 X110.013 Y126.486 E34.56284
G1 X110.031 Y124.101 E34.72855
G1 X110.102 Y121.991 E34.87526
G1 X110.224 Y119.901 E35.02071
G1 X110.412 Y117.673 E35.17605
G1 X109.866 Y117.535 F7800.000
G1 X110.157 Y115.019 F1080.000 E35.35203
G1 X110.520 Y112.597 E35.52217
G1 X110.947 Y110.297 E35.68477
G1 X111.430 Y108.138 E35.83845
G1 X111.960 Y106.151 E35.98136
G1 X112.237 Y105.228 E36.04831
G1 X112.577 Y104.191 E36.12411
G1 X113.206 Y102.505 E36.24915
G1 X113.542 Y101.713 E36.30896
G1 X113.948 Y100.825 E36.37681
G1 X114.466 Y101.966 E36.46390
G1 X114.919 Y103.084 E36.54767
G1 X115.377 Y104.359 E36.64185
G1 X115.827 Y105.775 E36.74509
G1 X116.259 Y107.321 E36.85661
G1 X116.617 Y108.769 E36.96027
G1 X116.950 Y110.295 E37.06875
G1 X117.256 Y111.893 E37.18183
G1 X117.531 Y113.553 E37.29874
G1 X117.772 Y115.265 E37.41887
G1 X117.979 Y117.024 E37.54190
G1 X118.149 Y118.820 E37.66726
G1 X118.281 Y120.647 E37.79450
G1 X118.374 Y122.494 E37.92302
G1 X118.428 Y124.356 E38.05247
G1 X118.442 Y125.956 E38.16366
G1 X118.423 Y127.824 E38.29339
G1 X118.374 Y129.422 E38.40450
G1 X118.281 Y131.268 E38.53290
G1 X118.149 Y133.094 E38.66017
