; generated by Slic3r 0.9.9 on 2014-12-05 at 15:03:20

; layer_height = 0.3
; perimeters = 1
; top_solid_layers = 1
; bottom_solid_layers = 1
; fill_density = 0.30
; perimeter_speed = 20
; infill_speed = 10
; travel_speed = 130
; nozzle_diameter = 0.4
; filament_diameter = 1.75
; extrusion_multiplier = 1
; perimeters extrusion width = 0.42mm
; infill extrusion width = 0.42mm
; solid infill extrusion width = 0.42mm
; top infill extrusion width = 0.42mm
; first layer extrusion width = 0.60mm

G21 ; set units to millimeters
M107
M190 S65 ; wait for bed temperature to be reached
M104 S195 ; set temperature
G28 ; home all axes
G1 Z5 F5000 ; lift nozzle
M109 S195 ; wait for temperature to be reached
G90 ; use absolute coordinates
G92 E0
M82 ; use absolute distances for extrusion
G1 F1800.000 E-1.00000
G92 E0
G1 Z0.300 F7800.000
G1 X122.787 Y85.786
G1 F1800.000 E1.00000
G1 X127.467 Y79.206 F1080.000 E1.56104
G1 X127.987 Y78.556 E1.61888
G1 X128.177 Y78.356 E1.63804
G1 X133.737 Y73.276 E2.16133
G1 X134.267 Y72.836 E2.20919
G1 X134.547 Y72.646 E2.23270
G1 X135.137 Y72.296 E2.28037
G1 X140.937 Y69.286 E2.73440
G1 X141.467 Y69.036 E2.77512
G1 X142.017 Y68.846 E2.81555
G1 X142.877 Y68.636 E2.87706
G1 X148.917 Y67.626 E3.30256
G1 X149.847 Y67.536 E3.36748
G1 X150.467 Y67.556 E3.41058
G1 X151.077 Y67.626 E3.45324
G1 X157.107 Y68.636 E3.87805
G1 X157.777 Y68.786 E3.92576
G1 X158.427 Y69.006 E3.97344
G1 X159.047 Y69.286 E4.02071
G1 X165.157 Y72.456 E4.49898
G1 X165.737 Y72.846 E4.54754
G1 X166.267 Y73.276 E4.59496
G1 X171.607 Y78.166 E5.09806
G1 X171.997 Y78.556 E5.13638
G1 X172.517 Y79.196 E5.19368
G1 X177.207 Y85.776 E5.75512
G1 X177.777 Y86.746 E5.83330
G1 X181.627 Y94.766 E6.45142
G1 X181.977 Y95.646 E6.51723
G1 X184.837 Y104.786 E7.18266
G1 X185.037 Y105.606 E7.24130
G1 X186.797 Y115.536 E7.94201
G1 X186.887 Y116.306 E7.99588
G1 X187.477 Y126.626 E8.71410
G1 X187.477 Y127.366 E8.76552
G1 X186.887 Y137.686 E9.48375
G1 X186.797 Y138.466 E9.53830
G1 X185.037 Y148.386 E10.23833
G1 X184.837 Y149.196 E10.29630
G1 X181.977 Y158.346 E10.96239
G1 X181.627 Y159.226 E11.02819
G1 X177.777 Y167.246 E11.64632
G1 X177.207 Y168.216 E11.72449
G1 X172.517 Y174.796 E12.28594
G1 X171.997 Y175.436 E12.34323
G1 X171.597 Y175.826 E12.38205
G1 X166.257 Y180.706 E12.88468
G1 X165.727 Y181.146 E12.93254
G1 X165.447 Y181.336 E12.95605
G1 X164.857 Y181.686 E13.00372
G1 X159.047 Y184.706 E13.45869
G1 X158.787 Y184.836 E13.47888
G1 X158.247 Y185.056 E13.51940
G1 X157.687 Y185.226 E13.56006
G1 X157.117 Y185.356 E13.60068
G1 X151.177 Y186.356 E14.01921
G1 X150.717 Y186.416 E14.05145
G1 X150.117 Y186.456 E14.09323
G1 X149.517 Y186.436 E14.13494
G1 X148.917 Y186.366 E14.17691
G1 X142.877 Y185.356 E14.60241
G1 X142.297 Y185.226 E14.64371
G1 X141.737 Y185.056 E14.68437
G1 X140.927 Y184.706 E14.74568
G1 X135.127 Y181.686 E15.20004
G1 X134.547 Y181.336 E15.24711
G1 X134.267 Y181.146 E15.27062
G1 X133.737 Y180.706 E15.31848
G1 X128.387 Y175.826 E15.82162
G1 X127.987 Y175.436 E15.86044
G1 X127.467 Y174.786 E15.91828
G1 X122.787 Y168.206 E16.47931
G1 X122.217 Y167.246 E16.55689
G1 X118.367 Y159.226 E17.17502
G1 X118.017 Y158.346 E17.24082
G1 X115.157 Y149.196 E17.90691
G1 X114.957 Y148.386 E17.96488
G1 X113.197 Y138.466 E18.66491
G1 X113.107 Y137.686 E18.71946
G1 X112.517 Y127.366 E19.43769
G1 X112.517 Y126.626 E19.48911
G1 X113.107 Y116.306 E20.20733
G1 X113.197 Y115.536 E20.26120
G1 X114.957 Y105.606 E20.96191
G1 X115.157 Y104.786 E21.02055
G1 X118.017 Y95.646 E21.68598
G1 X118.367 Y94.766 E21.75179
G1 X122.217 Y86.746 E22.36991
G1 X122.744 Y85.858 E22.44168
G1 F1800.000 E21.44168
G92 E0
G1 X128.849 Y90.018 F7800.000
G1 F1800.000 E1.00000
G1 X133.443 Y83.569 F1080.000 E1.55015
G1 X138.645 Y78.815 E2.03980
G1 X144.233 Y75.915 E2.47726
G1 X150.000 Y74.944 E2.88357
G1 X155.767 Y75.915 E3.28989
G1 X161.355 Y78.815 E3.72735
G1 X166.557 Y83.569 E4.21700
G1 X171.151 Y90.018 E4.76715
G1 X174.941 Y97.915 E5.37579
G1 X177.765 Y106.953 E6.03370
G1 X179.508 Y116.776 E6.72690
G1 X180.096 Y127.000 E7.43843
G1 X179.508 Y137.224 E8.14997
G1 X177.765 Y147.047 E8.84316
G1 X174.941 Y156.085 E9.50108
G1 X171.151 Y163.982 E10.10972
G1 X166.557 Y170.431 E10.65987
G1 X161.355 Y175.185 E11.14952
G1 X155.767 Y178.085 E11.58697
G1 X150.000 Y179.056 E11.99329
G1 X144.233 Y178.085 E12.39961
G1 X138.645 Y175.185 E12.83706
G1 X133.443 Y170.431 E13.32671
G1 X128.849 Y163.982 E13.87686
G1 X125.059 Y156.085 E14.48550
G1 X122.235 Y147.047 E15.14342
G1 X120.492 Y137.224 E15.83661
G1 X119.904 Y127.000 E16.54815
G1 X120.492 Y116.776 E17.25968
G1 X122.235 Y106.953 E17.95287
G1 X125.059 Y97.915 E18.61079
G1 X128.813 Y90.093 E19.21362
G1 X128.320 Y89.832 F7800.000
G1 X128.367 Y89.734 F756.000 E19.22122
G1 X133.024 Y83.198 E19.77881
G1 X138.323 Y78.354 E20.27766
G1 X144.055 Y75.380 E20.72630
G1 X150.000 Y74.379 E21.14522
G1 X155.945 Y75.380 E21.56413
G1 X161.677 Y78.354 E22.01277
G1 X166.976 Y83.198 E22.51162
G1 X171.633 Y89.734 E23.06921
G1 X175.460 Y97.711 E23.68398
G1 X178.308 Y106.821 E24.34716
G1 X180.062 Y116.711 E25.04511
G1 X180.654 Y127.000 E25.76116
G1 X180.062 Y137.289 E26.47722
G1 X178.308 Y147.179 E27.17516
G1 X175.460 Y156.289 E27.83835
G1 X171.632 Y164.266 E28.45312
G1 X166.976 Y170.802 E29.01071
G1 X161.677 Y175.646 E29.50956
G1 X155.945 Y178.620 E29.95819
G1 X150.000 Y179.621 E30.37711
G1 X144.055 Y178.620 E30.79603
G1 X138.323 Y175.646 E31.24467
G1 X133.024 Y170.802 E31.74352
G1 X128.367 Y164.266 E32.30110
G1 X124.540 Y156.289 E32.91587
G1 X121.692 Y147.179 E33.57906
G1 X119.938 Y137.288 E34.27701
G1 X119.346 Y127.000 E34.99306
G1 X119.938 Y116.712 E35.70910
G1 X121.692 Y106.821 E36.40705
G1 X124.540 Y97.711 E37.07024
G1 X128.284 Y89.908 E37.67160
G1 X128.429 Y89.824 F7800.000
G1 X166.252 Y83.838
G1 X166.253 Y83.838 F540.000 E37.67161
G1 X168.216 Y86.594 F7800.000
G1 X160.391 Y78.769 F540.000 E38.44471
G1 X158.745 Y77.915 E38.57428
G1 X170.179 Y89.349 E39.70400
G1 X171.301 Y91.263 E39.85903
G1 X157.099 Y77.061 E41.26228
G1 X155.530 Y76.285 E41.38455
G1 X172.032 Y92.786 E43.01499
G1 X172.762 Y94.309 E43.13302
G1 X154.578 Y76.124 E44.92980
G1 X153.625 Y75.964 E44.99729
G1 X173.493 Y95.832 E46.96041
G1 X174.224 Y97.355 E47.07844
G1 X152.672 Y75.803 E49.20790
G1 X151.720 Y75.643 E49.27540
G1 X174.757 Y98.680 E51.55160
G1 X175.117 Y99.832 E51.63595
G1 X150.767 Y75.483 E54.04187
G1 X149.868 Y75.376 E54.10513
G1 X175.477 Y100.985 E56.63547
G1 X175.837 Y102.137 E56.71982
G1 X149.190 Y75.490 E59.35274
G1 X148.512 Y75.604 E59.40077
G1 X176.197 Y103.289 E62.13626
G1 X176.557 Y104.442 E62.22061
G1 X147.834 Y75.718 E65.05867
G1 X147.156 Y75.832 E65.10671
G1 X176.918 Y105.594 E68.04734
G1 X177.278 Y106.746 E68.13169
G1 X146.478 Y75.947 E71.17490
G1 X145.800 Y76.061 E71.22293
G1 X177.498 Y107.759 E74.35492
G1 X177.669 Y108.722 E74.42325
G1 X145.122 Y76.175 E77.63910
G1 X144.444 Y76.289 E77.68714
G1 X177.840 Y109.685 E80.98685
G1 X178.011 Y110.648 E81.05518
G1 X143.904 Y76.541 E84.42516
G1 X143.382 Y76.812 E84.46621
G1 X178.182 Y111.611 E87.90460
G1 X178.352 Y112.574 E87.97293
G1 X142.861 Y77.082 E91.47973
G1 X142.339 Y77.353 E91.52078
G1 X178.523 Y113.537 E95.09599
G1 X178.694 Y114.500 E95.16432
G1 X141.817 Y77.624 E98.80795
G1 X141.296 Y77.894 E98.84900
G1 X178.865 Y115.463 E102.56104
G1 X179.036 Y116.426 E102.62937
G1 X140.774 Y78.165 E106.40982
G1 X140.253 Y78.435 E106.45087
G1 X179.134 Y117.317 E110.29263
G1 X179.183 Y118.158 E110.35146
G1 X139.731 Y78.706 E114.24953
G1 X139.209 Y78.977 E114.29059
G1 X179.231 Y118.998 E118.24498
G1 X179.280 Y119.839 E118.30381
G1 X138.727 Y79.286 E122.31065
G1 X138.313 Y79.665 E122.34982
G1 X179.328 Y120.680 E126.40233
G1 X179.376 Y121.520 E126.46116
G1 X137.899 Y80.043 E130.55934
G1 X137.486 Y80.421 E130.59852
G1 X179.425 Y122.361 E134.74238
G1 X179.473 Y123.201 E134.80121
G1 X137.072 Y80.800 E138.99074
G1 X136.658 Y81.178 E139.02992
G1 X179.522 Y124.042 E143.26513
G1 X179.570 Y124.883 E143.32395
G1 X136.244 Y81.556 E147.60484
G1 X135.830 Y81.935 E147.64401
G1 X179.619 Y125.723 E151.97057
G1 X179.667 Y126.564 E152.02940
G1 X135.416 Y82.313 E156.40164
G1 X135.002 Y82.691 E156.44081
G1 X179.671 Y127.360 E160.85437
G1 X179.628 Y128.109 E160.90679
G1 X134.588 Y83.070 E165.35698
G1 X134.175 Y83.448 E165.39615
G1 X179.585 Y128.858 E169.88297
G1 X179.542 Y129.607 E169.93539
G1 X133.761 Y83.826 E174.45884
G1 X133.428 Y84.286 E174.49848
G1 X179.499 Y130.357 E179.05050
G1 X179.456 Y131.106 E179.10292
G1 X133.099 Y84.749 E183.68324
G1 X132.769 Y85.211 E183.72292
G1 X179.412 Y131.855 E188.33155
G1 X179.369 Y132.604 E188.38397
G1 X132.440 Y85.674 E193.02090
G1 X132.110 Y86.137 E193.06058
G1 X179.326 Y133.353 E197.72581
G1 X179.283 Y134.102 E197.77823
G1 X131.781 Y86.599 E202.47177
G1 X131.451 Y87.062 E202.51145
G1 X179.240 Y134.851 E207.23329
G1 X179.197 Y135.600 E207.28571
G1 X131.121 Y87.524 E212.03585
G1 X130.792 Y87.987 E212.07554
G1 X179.154 Y136.349 E216.85398
G1 X179.111 Y137.098 E216.90640
G1 X130.462 Y88.450 E221.71315
G1 X130.133 Y88.912 E221.75283
G1 X178.999 Y137.779 E226.58115
G1 X178.880 Y138.452 E226.62889
G1 X129.803 Y89.375 E231.47797
G1 X129.473 Y89.837 E231.51766
G1 X178.760 Y139.124 E236.38752
G1 X178.641 Y139.797 E236.43526
G1 X129.156 Y90.312 E241.32471
G1 X128.899 Y90.847 E241.36620
G1 X178.522 Y140.470 E246.26924
G1 X178.402 Y141.143 E246.31698
G1 X128.642 Y91.383 E251.23361
G1 X128.385 Y91.918 E251.27509
G1 X178.283 Y141.816 E256.20531
G1 X178.164 Y142.489 E256.25305
G1 X128.128 Y92.453 E261.19686
G1 X127.871 Y92.988 E261.23834
G1 X178.044 Y143.162 E266.19574
G1 X177.925 Y143.834 E266.24348
G1 X127.614 Y93.524 E271.21447
G1 X127.358 Y94.059 E271.25595
G1 X177.806 Y144.507 E276.24053
G1 X177.686 Y145.180 E276.28827
G1 X127.101 Y94.594 E281.28643
G1 X126.844 Y95.130 E281.32792
G1 X177.567 Y145.853 E286.33967
G1 X177.448 Y146.526 E286.38741
G1 X126.587 Y95.665 E291.41275
G1 X126.330 Y96.200 E291.45424
G1 X177.303 Y147.173 E296.49065
G1 X177.114 Y147.777 E296.53483
G1 X126.073 Y96.736 E301.57798
G1 X125.816 Y97.271 E301.61947
G1 X176.926 Y148.380 E306.66936
G1 X176.737 Y148.984 E306.71354
G1 X125.559 Y97.806 E311.77018
G1 X125.338 Y98.377 E311.81295
G1 X176.548 Y149.587 E316.87284
G1 X176.360 Y150.191 E316.91702
G1 X125.149 Y98.981 E321.97690
G1 X124.961 Y99.584 E322.02108
G1 X176.171 Y150.794 E327.08096
G1 X175.982 Y151.398 E327.12514
G1 X124.772 Y100.188 E332.18502
G1 X124.583 Y100.791 E332.22920
G1 X175.794 Y152.002 E337.28909
G1 X175.605 Y152.605 E337.33327
G1 X124.395 Y101.395 E342.39315
G1 X124.206 Y101.998 E342.43733
G1 X175.417 Y153.209 E347.49721
G1 X175.228 Y153.812 E347.54139
G1 X124.018 Y102.602 E352.60127
G1 X123.829 Y103.205 E352.64545
G1 X175.039 Y154.416 E357.70534
G1 X174.851 Y155.019 E357.74952
G1 X123.640 Y103.809 E362.80940
G1 X123.452 Y104.413 E362.85358
G1 X174.662 Y155.623 E367.91346
G1 X174.441 Y156.194 E367.95623
G1 X123.263 Y105.016 E373.01287
G1 X123.074 Y105.620 E373.05705
G1 X174.184 Y156.729 E378.10695
G1 X173.927 Y157.264 E378.14844
G1 X122.886 Y106.223 E383.19159
G1 X122.697 Y106.827 E383.23577
G1 X173.670 Y157.800 E388.27218
G1 X173.413 Y158.335 E388.31367
G1 X122.552 Y107.474 E393.33901
G1 X122.433 Y108.147 E393.38675
G1 X173.156 Y158.870 E398.39851
G1 X172.899 Y159.405 E398.43999
G1 X122.314 Y108.820 E403.43816
G1 X122.194 Y109.493 E403.48590
G1 X172.642 Y159.941 E408.47048
G1 X172.386 Y160.476 E408.51196
G1 X122.075 Y110.165 E413.48295
G1 X121.956 Y110.838 E413.53069
G1 X172.129 Y161.011 E418.48809
G1 X171.872 Y161.547 E418.52958
G1 X121.836 Y111.511 E423.47338
G1 X121.717 Y112.184 E423.52113
G1 X171.615 Y162.082 E428.45135
G1 X171.358 Y162.617 E428.49283
G1 X121.598 Y112.857 E433.40946
G1 X121.478 Y113.530 E433.45721
G1 X171.101 Y163.153 E438.36025
G1 X170.844 Y163.688 E438.40173
G1 X121.359 Y114.203 E443.29119
G1 X121.240 Y114.875 E443.33893
G1 X170.527 Y164.163 E448.20879
G1 X170.197 Y164.625 E448.24848
G1 X121.120 Y115.548 E453.09756
G1 X121.001 Y116.221 E453.14531
G1 X169.867 Y165.088 E457.97362
G1 X169.538 Y165.550 E458.01331
G1 X120.889 Y116.902 E462.82006
G1 X120.846 Y117.651 E462.87248
G1 X169.208 Y166.013 E467.65093
G1 X168.879 Y166.476 E467.69061
G1 X120.803 Y118.400 E472.44076
G1 X120.760 Y119.149 E472.49318
G1 X168.549 Y166.938 E477.21503
G1 X168.220 Y167.401 E477.25471
G1 X120.717 Y119.898 E481.94825
G1 X120.674 Y120.647 E482.00067
G1 X167.890 Y167.863 E486.66591
G1 X167.560 Y168.326 E486.70559
G1 X120.631 Y121.396 E491.34253
G1 X120.588 Y122.145 E491.39495
G1 X167.231 Y168.788 E496.00358
G1 X166.901 Y169.251 E496.04326
G1 X120.544 Y122.894 E500.62359
G1 X120.501 Y123.643 E500.67601
G1 X166.572 Y169.714 E505.22803
G1 X166.239 Y170.174 E505.26767
G1 X120.458 Y124.392 E509.79113
G1 X120.415 Y125.141 E509.84355
G1 X165.825 Y170.552 E514.33037
G1 X165.412 Y170.930 E514.36955
G1 X120.372 Y125.890 E518.81975
G1 X120.329 Y126.640 E518.87217
G1 X164.998 Y171.309 E523.28573
G1 X164.584 Y171.687 E523.32491
G1 X120.333 Y127.436 E527.69715
G1 X120.381 Y128.277 E527.75598
G1 X164.170 Y172.065 E532.08255
G1 X163.756 Y172.444 E532.12172
G1 X120.430 Y129.117 E536.40261
G1 X120.478 Y129.958 E536.46144
G1 X163.342 Y172.822 E540.69666
G1 X162.928 Y173.200 E540.73584
G1 X120.527 Y130.798 E544.92538
G1 X120.575 Y131.639 E544.98421
G1 X162.515 Y173.579 E549.12807
G1 X162.101 Y173.957 E549.16725
G1 X120.623 Y132.480 E553.26544
G1 X120.672 Y133.320 E553.32427
G1 X161.687 Y174.335 E557.37679
G1 X161.273 Y174.713 E557.41596
G1 X120.720 Y134.161 E561.42281
G1 X120.769 Y135.001 E561.48163
G1 X160.791 Y175.023 E565.43604
G1 X160.269 Y175.294 E565.47709
G1 X120.817 Y135.842 E569.37518
G1 X120.866 Y136.683 E569.43401
G1 X159.748 Y175.565 E573.27578
G1 X159.226 Y175.835 E573.31683
G1 X120.964 Y137.574 E577.09729
G1 X121.135 Y138.537 E577.16562
G1 X158.704 Y176.106 E580.87767
G1 X158.183 Y176.376 E580.91872
G1 X121.306 Y139.500 E584.56236
G1 X121.477 Y140.463 E584.63069
G1 X157.661 Y176.647 E588.20591
G1 X157.140 Y176.918 E588.24697
G1 X121.648 Y141.426 E591.75378
G1 X121.818 Y142.389 E591.82211
G1 X156.618 Y177.188 E595.26051
G1 X156.096 Y177.459 E595.30156
G1 X121.989 Y143.352 E598.67155
G1 X122.160 Y144.315 E598.73988
G1 X155.556 Y177.711 E602.03961
G1 X154.878 Y177.825 E602.08764
G1 X122.331 Y145.278 E605.30351
G1 X122.502 Y146.241 E605.37184
G1 X154.200 Y177.939 E608.50384
G1 X153.522 Y178.053 E608.55188
G1 X122.722 Y147.253 E611.59510
G1 X123.082 Y148.406 E611.67945
G1 X152.844 Y178.168 E614.62011
G1 X152.166 Y178.282 E614.66814
G1 X123.442 Y149.558 E617.50622
G1 X123.803 Y150.710 E617.59057
G1 X151.488 Y178.396 E620.32608
G1 X150.810 Y178.510 E620.37411
G1 X124.163 Y151.863 E623.00705
G1 X124.523 Y153.015 E623.09140
G1 X150.132 Y178.624 E625.62176
G1 X149.233 Y178.518 E625.68501
G1 X124.883 Y154.167 E628.09096
G1 X125.243 Y155.320 E628.17531
G1 X148.281 Y178.357 E630.45154
G1 X147.328 Y178.197 E630.51903
G1 X125.776 Y156.644 E632.64853
G1 X126.507 Y158.167 E632.76655
G1 X146.375 Y178.036 E634.72970
G1 X145.423 Y177.876 E634.79720
G1 X127.237 Y159.690 E636.59401
G1 X127.968 Y161.213 E636.71204
G1 X144.470 Y177.715 E638.34251
G1 X142.902 Y176.939 E638.46477
G1 X128.699 Y162.736 E639.86806
G1 X129.821 Y164.651 E640.02307
G1 X141.255 Y176.085 E641.15285
G1 X139.609 Y175.231 E641.28242
G1 X131.784 Y167.406 E642.05558
G1 X133.747 Y170.161 F7800.000
G1 X133.749 Y170.163 F540.000 E642.05578
M104 S190 ; set temperature
G1 F1800.000 E641.05578
G92 E0
G1 Z0.600 F7800.000
G1 X133.287 Y170.569
G1 F1800.000 E1.00000
G1 X128.670 Y164.088 F1200.000 E1.41575
G1 X124.866 Y156.161 E1.87511
G1 X122.033 Y147.096 E2.37129
G1 X120.286 Y137.248 E2.89384
G1 X119.696 Y127.000 E3.43012
G1 X120.286 Y116.752 E3.96640
G1 X122.033 Y106.904 E4.48896
G1 X124.866 Y97.839 E4.98513
G1 X128.670 Y89.912 E5.44450
G1 X133.287 Y83.431 E5.86024
G1 X138.525 Y78.643 E6.23100
G1 X144.167 Y75.716 E6.56306
G1 X150.000 Y74.734 E6.87210
G1 X155.833 Y75.716 E7.18114
G1 X161.475 Y78.643 E7.51321
G1 X166.713 Y83.431 E7.88396
G1 X171.330 Y89.912 E8.29971
G1 X175.134 Y97.839 E8.75907
G1 X177.967 Y106.904 E9.25524
G1 X179.714 Y116.752 E9.77780
